!!!COM: Beethoven, Ludwig van
!!!CDT: 1770///-1827///
!!!OTL: Piano Sonata no. 32 in C minor
!!!ODT: 1821///-1822///
!!!ODT: 1821///-1822///
!!!ODE: Ersterzog Rudolph von &Ouml;sterreich
!!!OPS: 111
!!!OMV: 2
!!!OMD: ARIETTA\nAdagio molto, semplice e cantabile
**kern	**kern	**dynam
*staff2	*staff1	*staff1/2
*Ipiano	*Ipiano	*Ipiano
*>[A,A1,A,A2,B,B1,B,B2,C,C1,C,C2,D,D1,D,D2,E,E1,E,E2,F,F1,F,F2,G,G1,G,G2,H,H1,H,H2,I]	*>[A,A1,A,A2,B,B1,B,B2,C,C1,C,C2,D,D1,D,D2,E,E1,E,E2,F,F1,F,F2,G,G1,G,G2,H,H1,H,H2,I]	*>[A,A1,A,A2,B,B1,B,B2,C,C1,C,C2,D,D1,D,D2,E,E1,E,E2,F,F1,F,F2,G,G1,G,G2,H,H1,H,H2,I]
*>norep[A,A2,B,B2,C,C2,D,D2,E,E2,F,F2,G,G2,H,H2,I]	*>norep[A,A2,B,B2,C,C2,D,D2,E,E2,F,F2,G,G2,H,H2,I]	*>norep[A,A2,B,B2,C,C2,D,D2,E,E2,F,F2,G,G2,H,H2,I]
*>A	*>A	*>A
*clefF4	*clefG2	*
*k[]	*k[]	*
*C:	*C:	*
*M9/16	*M9/16	*
*MM40	*MM40	*
*	*^	*
!	!	!	!LO:DY:rj
8.CC 8.GG	(8ccL	8.e	p
.	16gJk)	.	.
=1	=1	=1	=1
8.CC 8.GGL	4.g	(8.eL	.
8.DD 8.GG	.	8.f	.
8.BBB 8.GGJ	(8ddL	8.dJ)	.
.	16gJk))	.	.
=2	=2	=2	=2
8.BBB 8.GGL	4.g	(8.dL	.
8.CC 8.GG	.	8.e	.
8.DD 8.GGJ	8.g	8.fJ)	.
=3	=3	=3	=3
8.EE 8.GGL	(8.gL	8.gL	.
8.CC 8.GG	8.ee	8.e	.
8.EE 8.GGJ	8.ccJ)	8.gJ	.
=4	=4	=4	=4
*^	*	*	*
(<8.GGGL	4.GGG	8.ccL	8.eL	.
8.GGJ)	.	8.b	8.d	.
(8GGG 8GGL	8.ryy	8.g 8.bJ	8.dJ	.
16FFF) 16FFJk	.	.	.	.
*v	*v	*	*	*
=5	=5	=5	=5
4.EEE 4.EE	(8.ccL	4.g	<
.	8.ee	.	.
8.EEE 8.EE	8.ggJ)	8.g	[[
=6	=6	=6	=6
4.DDD 4.DD	(8.ggL	4.a	>
.	8.ffJ	.	.
(8FFF 8FFL	8ddL	8aL	.
16FFF#) 16FF#Jk	16a 16ccJk)	16dJk	]]
!!LO:LB:g=original
=7	=7	=7	=7
*^	*	*	*
(8.GGL	4.GGG	(8.g 8.bL	8.dL	.
8.AAJ	.	8.g 8.ccJ	8.cJ	.
8BBL)	8.ryy	8g 8ddL	8dL	.
[16BBJk	.	16gJk)	[16dJk	.
*v	*v	*	*	*
*	*v	*v	*
=8	=8	=8
*>A1	*>A1	*>A1
*	*^	*
8BBL]	4.g	8dL]	<
(16BBk	.	(>16dk	[
8C	.	8c 8e	>
()16DJk)	.	(16B 16fJk)	]
*	*v	*v	*
=9:|!	=9:|!	=9:|!
*>A2	*>A2	*>A2
*	*^	*
8BBL)	4.g	8dL)	<
(16Ck	.	16c (>16ek	[
8D	.	8B 8f	>
16CJk)	.	16c 16eJk)	.]
8.E/	8.e	8.ryy	.
*	*v	*v	*
=10!|:	=10!|:	=10!|:
*>B	*>B	*>B
*	*^	*
*^	*	*	*
8.AAL	4.AA	4.cc	4.e	.
8.E	.	.	.	.
8.EJ	8.AA	(8ccL	8.e	.
.	.	16bJk)	.	.
=11	=11	=11	=11	=11
8.GG#L	4.GG#	4.b	4.e	.
8.E	.	.	.	.
8.EJ	8.GG#	(8bL>	8.ryy	.
.	.	16eeJk)	.	.
*v	*v	*	*	*
*	*v	*v	*
=12	=12	=12
8.GG# 8.EL	8.b 8.eeL	.
8.AA 8.E	8.cc (8.eeJ	.
8.AA 8.EJ	8b 8ddL	.
.	16a 16ccJk)	.
=13	=13	=13
*^	*	*
(<8.EEL	4.EE	(8.a 8.ccL	.
8.E)	.	8.g# 8.b	.
8.AAA 8.AAJ	8.ryy	8.e) 8.a 8.ccJ	.
*v	*v	*	*
!!LO:LB:g=original
=14	=14	=14
4.GGG 4.GG	4.gn 4.b 4.dd	<
8.GGG 8.GG	8.g 8.b 8.dd	.
=15	=15	=15
4.CC 4.C	4.g 4.cc 4.ee	.
8.FFF 8.FF	8.a 8.cc 8.ff	.
=16	=16	=16
8.GGG 8.GGL	8.g 8.b 8.ddL	.
8.GGG 8.GGJ	8.g 8.b 8.ddJ	.
8GGG 8GGL	8g 8b (8ddL	.
16GGG 16GGJk	16b 16dd 16ggJk)	.
=17	=17	=17
*>B1	*>B1	*>B1
(8GGG 8GGL	(8b 8dd 8ggL	sf >
16CC 16CJk)	16g 16cc 16eeJk)	]]
8.CC 8.C	8.g 8.cc 8.ee	p
8.E/	8.e	.
=18:|!	=18:|!	=18:|!
*>B2	*>B2	*>B2
(8GGG 8GGL	8b 8dd (8ggL	sf >
16CC) 16CJk	16g 16cc 16eeJk)	]]
16CC 16CLL<	8.g 8.cc 8.ee	p
(16G	.	.
16FJJ	.	.
!	!LO:TX:c:i:t=dolce	!
16ELL	8ccL	.
16C	.	.
[16GJJ)	16eJk	.
=19!|:	=19!|:	=19!|:
*>C	*>C	*>C
!	!LO:TX:c:i:t=sempre legato	!
16GLL]	8aL	.
16C#	.	.
[16GJJ	16eJk	.
16GLL]	8gL	.
16D	.	.
[16GJJ	16fJk	.
16GLL]	8ddL	.
16AA#	.	.
[16GJJ	16dJk	.
!!LO:LB:g=original
=20	=20	=20
16GLL]	8gL	.
16BB	.	.
[16GJJ	16dJk	.
16GLL]	8fL	.
16Cn	.	.
16GJJ	16eJk	.
16ELL	8gL	.
16D	.	.
[16GJJ	16fJk	.
=21	=21	=21
16GLL]	8aL	.
16D#	.	.
16EJJ	16gJk	.
16GLL	8eeL	.
16C	.	.
[16GJJ	16eJk	.
16GLL]	8ccL	.
16E	.	.
[16GJJ	16eJk	.
=22	=22	=22
16GLL]	8e- 8ccL	.
16FF#	.	.
[16GJJ	16d 16bJk	.
16GLL]	8c 8aL	.
16GG	.	.
[16GJJ	16B 16gJk	.
16GLL]	8c 8aL	.
16FFn	.	.
[16GJJ	16d 16bJk	.
=23	=23	=23
*	*^	*
16GLL]	4.ryy	8ccL	<
16EE	.	.	.
[16GJJ	.	16enJk	.
16GLL]	.	8eeL	.
16CC	.	.	.
[16EJJ	.	16gJk	.
16ELL]	8ggL	8b-L	.
16CC	.	.	.
[16EJJ	16b-Jk	16gJk	[[
=24	=24	=24	=24
16ELL]	8ggL	8aL	.
16CC#	.	.	.
[16EJJ	16aJk	16gJk	.
16ELL]	8ffL	8.a	>
16DD	.	.	.
16FJJ	16aJk	.	.
16F#LL	8ddL	8aL	.
16FF#	.	.	.
16AJJ	16ccJk	16f#Jk	]]
!!LO:LB:g=original
=25	=25	=25	=25
16A-LL	8ccL	8.d 8.fnL	.
16GG	.	.	.
16GJJ	16bnJk	.	.
16AnLL	8ccL	[8.d [8.fJ	.
16GG	.	.	.
[16B-JJ	16cc#Jk	.	.
16B-LL]	16cc#LL	16d] 16fLL]	.
16Bn	16g 16dd	16d 16f	.
16BJJ	16gJJ	16d 16fJJ	.
*	*v	*v	*
=26	=26	=26
*>C1	*>C1	*>C1
*	*^	*
(16BLL	4g	(>16d 16fLL	.
16c	.	16e	.
16FJJ	.	16dJJ	.
16ELL	.	16cLL	.
16F	8ryy	16d	.
16DJJ)	.	16BJJ)	.
(16ELL	(8ccL	8.ryy	.
16C	.	.	.
[16GJJ)	16eJk)	.	.
*	*v	*v	*
=27:|!	=27:|!	=27:|!
*>C2	*>C2	*>C2
*	*^	*
16BLL	[8.g	16d 16fLL	.
16c	.	16e	.
16dJJ	.	16fJJ	.
16cLL	16gLL]	16eLL	.
16B	16g#	16d 16e	.
16AJJ	16aJJ	16c 16eJJ	.
16G#LL	16bLL	16B 16eLL	.
16A	16e	16c	.
16BJJ	16eJJ	16dJJ	.
=28	=28	=28	=28
16ALL	8ccL	8ryy	.
16AA	.	.	.
[16EJJ	16eJk	16c	.
*	*v	*v	*
=!|:	=!|:	=!|:
*>D	*>D	*>D
*	*^	*
16ELL]	8fL	8B 8d	.
16GG#	.	.	.
[16EJJ	16eJk	8.ryy	.
16ELL]	8ccL	.	.
16AA	.	.	.
[16EJJ	16c 16eJk	16ryy	.
*	*v	*v	*
!!LO:LB:g=original
=29	=29	=29
16ELL]	8bL	.
16GG#	.	.
[16EJJ	(16B [16eJk	.
16ELL]	16c) 16eLL]	>
16AA	16cc	.
[16EJJ	16bJJ	.
16ELL]	16ccLL>	.
16GG#	16g 16dd	.
[16G#JJ	[16b 16eeJJ	.
=30	=30	=30
*	*^	*
16G#LL]	(8ffL	16bLL]	.
16G#	.	16b	.
[16AJJ	16eeJk)	16ccJJ	.
16ALL]	(8eeL	8ccL	.
16A	.	.	.
[16BJJ	16ddJk)	16g#Jk	.
16BLL]	16ddLL	16g#LL	.
16c	16cc	16a	.
16dJJ	[16ccJJ	[16aJJ	.
*	*v	*v	*
=31	=31	=31
(16d#LL	16a] 16ccLL]	<
16e)	16g# 16b	.
[16eJJ	[16g# [16bJJ	.
(16eLL]	16g#] 16bLL]	.
16A)	16e 16cc	.
[16AJJ	[16e [16ccJJ	.
(16ALL]	(16e] 16ccLL]	p
16Gn)	16b) 16dd	.
[16GJJ	16b 16ddJJ	.
=32	=32	=32
*	*^	*
(16GLL<]	4.dd	(>8bL	.
16GG	.	.	.
[16GJJ	.	16fJk	.
16GLL<]	.	8eL	<
16GG	.	.	.
[16GJJ	.	16fJk)	.
16GLL<]	8.dd#	8bL	.
16GG	.	.	.
[16GJJ)	.	16fJk	.
=33	=33	=33	=33
16GLL]	8.ee	8b-L	.
16CC	.	.	.
[16CJJ	.	16eJk	.
16CLL]	8b- (8eeL	8gL	.
16CC	.	.	.
[16CJJ	16ee 16ggJk)	16b-Jk	.
16CLL]	(8ggL	8.a	.
16FFF	.	.	.
16FFJJ	16ffJk)	.	.
!!LO:LB:g=original
=34	=34	=34	=34
16GGLL	(8eeL	8.f 8.bL	.
16GGG	.	.	.
[16GGJJ	16ddnJk)	.	.
16GGLL]	(8cc#L	8.f 8.bJ	.
16GGG	.	.	.
[16GGJJ	16ddJk)	.	.
16GGLL]	(16ddLL	8bL	.
16GGG	16aa	.	.
16BBJJ	16ggJJ)	16ddJk	.
*	*v	*v	*
=35	=35	=35
*>D1	*>D1	*>D1
*^	*^	*
16r	16BBLL	(16ggLL	16ddLL	sf
16GLL	16GG	16ff	16b	>
16GJJ	[16CJJ	16eeJJ	[16ccnJJ	]]
16ALL	8C]	16ffLL	16ccLL_	.
(16G	.	16ee)	16ccJJ]	.
16EJJ	16ryy	(16eJJ	16ryy	.
8.ryy	16FLL	16fLL	8.ryy	.
.	16E)	16e)	.	.
.	[16EJJ	(16eJJ	.	.
*v	*v	*	*	*
*	*v	*v	*
=36	=36	=36
16ELL<]	8ccL	.
16AA	.	.
16EJJ	16c) 16eJk	.
=:|!	=:|!	=:|!
*>D2	*>D2	*>D2
*^	*	*
16r	16BBLL	16dd (16ggLL	sf
16GLL	16GG	16b 16ff	>
(16GJJ	[16CJJ	[16cc 16eeJJ	]]
16ALL)	8CL]	16cc_ 16ffLL	.
16G	.	16cc] 16ee	.
16GJJ	16CJk	16cc 16eeJJ)	.
*v	*v	*	*
=!|:	=!|:	=!|:
*>E	*>E	*>E
*M6/16	*M6/16	*
*Xtuplet	*Xtuplet	*
!	!LO:TX:c:i:t=dolce	!
(24cLL	8r	.
48Gk	.	.
24F#	.	.
48GJJk)	.	.
=37	=37	=37
*	*^	*
!	!	!LO:TX:b:i:t=m.g.	!
16GLL	(24eeLL	24gLL	.
.	48cck	48ek	.
[16GJJ	24b	24d	.
.	48ccJJk	48eJJk	.
16GLL]	24ddLL	24fLL	.
.	48bk	48dk	.
16GJJ	24a#	24c#	.
.	48bJJk)	48dJJk	.
(24DLL	8r	8r	.
48GGk	.	.	.
24FF#	.	.	.
48GGJJk)	.	.	.
*	*v	*v	*
!!LO:LB:g=original
=38	=38	=38
*Xtuplet	*Xtuplet	*
!	!LO:TX:c:i:t=sempre legato	!
16AALL	24Fn<LL	.
.	48D<k	.
[16BBJJ	24C#<	.
.	48D<JJk	.
16BBLL]	24gLL	.
.	48ek	.
16CnJJ	24d#	.
.	48eJJk	.
16C#LL<	24gLL	.
.	48ek	.
16DJJ	24g	.
.	48fJJk	.
*	*	*
=39	=39	=39
16D#LL	24aLL	.
.	48f#k	.
16EJJ	24a	.
.	48gJJk	.
24DnLL<	8g/ 8ee/	.
48BBk	.	.
24D	.	.
48CJJk	.	.
24FLL	8g 8cc	.
48D#k	.	.
24F	.	.
48EJJk	.	.
=40	=40	=40
*	*^	*
8G	24ccLL	24eLL	.
.	48bk	48dk	.
.	24dd	24fn	.
.	48ccJJk	48eJJk	.
8GG	24ccLL	24eLL	.
.	48a#k	48c#k	.
.	24cc	24e	.
.	48bJJk	48dnJJk	.
24FFLL	8g 8b	8d	.
48EEk	.	.	.
24GG	.	.	.
48FFJJk	.	.	.
=41	=41	=41	=41
24EELL	8cc	8g	<
48DDk	.	.	.
24FF	.	.	.
48EEJJk	.	.	.
24CCLL	24eeLL	16eLL	.
48BBBk	48ddk	.	.
24DD	24ff	16gJJ	.
48CCJJk	48eeJJk	.	.
24BBB-LL	[8gg	24ddLL	.
48AAAk	.	48cc#k	.
24CC	.	24ee	.
48BBB-JJk	.	48ddJJk	.
!!LO:LB:g=original
=42	=42	=42	=42
16AAALL	16ggLL]	24cc#LL	.
.	.	48bk	.
16AAJJ	[16ggJJ	24dd	.
.	.	48cc#JJk	.
16DDLL	24ggLL]	16aLL	.
.	48eek	.	.
16DJJ	24gg	[16aJJ	.
.	48ffJJk	.	.
16FFLL	24eeLL	16aLL]	.
.	48cc#k	.	.
[16FF#JJ	24ee	16aJJ	.
.	48ddJJk	.	.
=43	=43	=43	=43
*^	*	*	*
24FF#LL]	8ryy	16ccnLL	16aLL	.
48FF#k	.	.	.	.
24AA	.	16bJJ	16dJJ	.
48GGJJk	.	.	.	.
16AALL	[8GG	16ccLL	24gLL	.
.	.	.	48ek	.
[16BB-JJ	.	16cc#JJ	24g	.
.	.	.	[48fJJk	.
16BB-LL]	16GGLL]	16ddLL	24fLL]	.
.	.	.	48dk	.
[16BBnJJ	[16GGJJ	24dd	24f 24a-	.
.	.	48gJJk	48d 48fJJk	.
*v	*v	*	*	*
*	*v	*v	*
=44	=44	=44
*>E1	*>E1	*>E1
*^	*^	*
16BB]	24GGLL]	16gLL	24d 24fLL	.
.	(>48BBk	.	48dk	.
8.ryy	24D	[16gJJ	24B	.
.	48EJJk	.	48cJJk	.
.	24FLL	16gLL]	24dLL	.
.	48Ek	.	48ck	.
.	24D	16gJJ	24f	.
.	48CJJk)	.	48eJJk	.
*v	*v	*	*	*
*	*v	*v	*
=45:|!	=45:|!	=45:|!
*>E2	*>E2	*>E2
*	*^	*
24GG] 24BB]>LL	16gLL	24d 24fLL	<
48BBk	.	48dk	.
24D	[16gJJ	24B 24f	.
48CJJk	.	48c 48eJJk	[
24CLL	24gLL]	24eLL	>
48BBk	48g#k	48d 48ek	.
24AA	24a	24c 24e	.
[48GG#JJk	48bJJk	[48B 48eJJk	]
24GG#LL]	24eLL	24BLL]	.
48GG#k	[48ek	48dk	.
24AA	24e]	24A 24c	.
48BBJJk	48eJJk	48G# 48dJJk	.
*	*v	*v	*
!!LO:LB:g=original
=46!|:	=46!|:	=46!|:
*>F	*>F	*>F
*^	*^	*
24AALL	[16AALL	[16ccLL	24cLL	.
48D#k	.	.	48d#k	.
[16EJJ	24AA]	24cc]	[16eJJ	.
.	48GG#JJk	48bJJk	.	.
24ELL]	[24AALL	[16ccLL	24eLL]	.
48D#k	48AAk]	.	48d#k	.
[16EJJ	16GG#JJ	24cc]	[16eJJ	.
.	.	48bJJk	.	.
24ELL]	[16AALL	[16ccLL	24eLL]	.
48D#k	.	.	48d#k	.
[16EJJ	24AA]	24cc]	[16eJJ	.
.	48GG#JJk	48bJJk	.	.
=47	=47	=47	=47	=47
24ELL]	[16GG#LL	[16bLL	24eLL]	.
48Fk	.	.	48fk	.
[16EJJ	24GG#]	24b]	[16eJJ	.
.	48AAJJk	48ccJJk	.	.
24ELL]	[16GG#LL	[16bLL	24eLL]	.
48Fk	.	.	48fk	.
[16EJJ	24GG#]	24b]	[16eJJ	.
.	48AAJJk	48ccJJk	.	.
24ELL]	[16GG#LL	[16bLL	24eLL]	.
48Fk	.	.	48fk	.
16EJJ	24GG#]	24b]	16eJJ	.
.	[48GG#JJk	48eeJJk	.	.
*v	*v	*	*	*
*	*v	*v	*
=48	=48	=48
24GGG# 24GG#X]LL	[16b [16eeLL	.
48GGG# 48GG#k	.	.
[16AAA [16AAJJ	24b] 24ee]	.
.	48cc 48eeJJk	.
24AAA] 24AALL]	[16cc [16eeLL	.
(48AAA 48AAk	.	.
(>16BBB 16BBJJ	24cc] 24ee]	.
.	48g# 48b 48ddJJk	.
24CC 24CLL)	(24e 24b 24ddLL	.
48DD 48Dk	48f 48a 48cck	.
24DD# 24D#	24f# 24a 24cc	.
48EE 48EJJk)	()48B 48g# 48bJJk	.
!!LO:LB:g=original
=49	=49	=49
24EE 24ELL	24B 24g# 24bLL	<
[48EE [48Ek	[48B 48g# [48bk	.
24EE] 24E]	24B] 24g# 24b]	.
[48EE [48EJJk	[48B 48g# [48bJJk	.
24EE] 24ELL]	24B] 24g# 24bLL]	.
[48AAA [48AAk	[48c 48a [48cck	.
24AAA] 24AA]	24c] 24a 24cc]	.
[48AAA [48AAJJk	[48c 48a [48ccJJk	.
24AAA] 24AALL]	24c] 24a 24ccLL]	.
[48GGGn [48GGnk	[48d 48b [48ddk	.
24GGG] 24GG]	24d] 24b 24dd]	.
48GGG 48GGJJk	48dd 48bb 48dddJJk	p
=50	=50	=50
*^	*^	*
24GGG 24GG	16ryy	8ryy	24dd 24bb (24dddLL	.
48fLLK	.	.	48ddk	<
24e	[16G	.	24cc#	.
48fJJk	.	.	48ddJJk)	.
24fLL	8G_	[8dd	24ddLL	.
48dk	.	.	48bk	.
24c	.	.	24a#	.
48dJJk	.	.	48bJJk	.
16BLL	16G]LL	24ddLL]	16gnLL	.
.	.	48dd#k	.	.
24d	[16GJJ	24ff	[16gJJ	.
48cnJJk	.	48eeJJk	.	.
=51	=51	=51	=51	=51
24cLL	16GLL]	[8ee	24gLL]	.
48ek	.	.	48ccnk	.
24d#	[16cJJ	.	24b	.
48eJJk	.	.	48ccJJk	.
24eLL	16cLL]	16eeLL]	24ccLL	.
48gk	.	.	48b-k	.
24f#	[16cJJ	[16eeJJ	24a	.
48gJJk	.	.	48b-JJk	.
24gLL	16cLL]	24eeLL]	[16b-LL	.
48gk	.	48eek	.	.
24e	16FnJJ	24gg	24b-]	.
48f#JJk	.	48ffJJk	48aJJk	.
!!LO:LB:g=original
=52	=52	=52	=52	=52
24cLL	24F#LL	(24ddnLL	24aLL	.
48Ak	48Ak	48ff#k	48cck	.
24c	24F#	24aa	[16ddJJ	.
[48BJJk	[48GJJk	[48ggJJk)	.	.
24BLL]	16GLL]	(16ggLL]	24ddLL]	.
48Bk	.	.	48dd#k	.
16cJJ	[16GJJ	24aa	[16eeJJ	.
.	.	[48ggJJk)	.	.
24c#LL	16GLL]	(24ggLL]	24eeLL]	.
48dk	.	48ffnk	48ffnk	.
24f	24G	24aa	24b 24ff	.
48d 48fJJk	48GJJk	48ggJJk)	48b 48ddnJJk	.
*v	*v	*	*	*
*	*v	*v	*
=53	=53	=53
*>F1	*>F1	*>F1
*	*^	*
24G 24d 24fLL	[16ggLL	24b 24ddLL	sf >
48GG 48Gk	.	48bk	.
24AA (24A	24gg]	24cc	.
48BB 48BJJk)	48ffJJk	48ddJJk	] p
24C 24cLL	16ee	24gLL	.
(48Dk	.	48Bk	.
24E	16rdd	24c	.
48FJJk	.	48dJJk	.
24ELL<	24rdd	24cLL	.
48Dk	[48eLLK	48Bk	.
24C	24e]	24A	.
48BBJJk)	48eJJk	48G# 48dJJk	.
*	*v	*v	*
=54:|!	=54:|!	=54:|!
*>F2	*>F2	*>F2
*	*^	*
24G 24d 24fLL	[16ggLL	24b 24ddLL	f >
48GG (48Gk	.	48bk	.
24AA 24A	24gg]	24cc	.
48BB 48BJJk	48ffJJk	48ddJJk	.
24C 24cLL)	24eeLL	24gLL	] p
*clefG2	*	*	*
48bk	[48ggk	48ddk	.
24cc	24gg]	24ee	.
48ddJJk	48ggJJk	48ffJJk	.
*	*v	*v	*
*clefF4	*	*
!!LO:LB:g=original
=||	=||	=||
*>G	*>G	*>G
!!LO:TX:a:B:t=L'istesso tempo
*M12/32	*M12/32	*
*MM30	*MM30	*
8r	(48cccLLL	f
.	96ggk	.
.	48ee	.
.	96ccJJJk	.
.	48gLLL<	.
.	96ek	.
.	48c	.
.	96GJJJk)	.
=55	=55	=55
(48CCLLL<	[32e [32gLLL	.
96EEk	.	.
48GG	48e] 48g]	.
96Ck	[96e [96gk	.
48E	32e_ 32g_	.
96Gk	.	.
48B	48e] 48g]	.
96cJJJk)	96e 96gJJJk	.
(48DDLLL	[32f [32gLLL	.
96GGk	.	.
48BB	48f] 48g]	.
96Dk	[96f [96gk	.
48G	32f_ 32g_	.
96Bk	.	.
48c#	48f] 48g]	.
96dJJJk)	96f 96gJJJk	.
8r	(48fffLLL	.
.	96dddk	.
.	48bb	.
.	96ggk	.
.	48ff	.
.	96ddk	.
.	48b	.
.	96gJJJk)	.
!!LO:LB:g=original
=56	=56	=56
!	!	!LO:DY:t=sempre %s
(48DDLLL	[32f [32gLLL	f
96GGk	.	.
48BB	48f] 48g]	.
96Dk	[96f [96gk	.
48G	32f_ 32g_	.
96Bk	.	.
48c#	48f] 48g]	.
96dJJJk)	96f 96gJJJk	.
(48EELLL	[32gLLL	.
96GGk	.	.
48C	48g]	.
96Ek	[96gk	.
48G	32g_	.
96c#k	.	.
48d#	48g]	.
96eJJJk)	96gJJJk	.
8r	(48gggLLL	.
.	96eeek	.
.	48ccc	.
.	96ggk	.
.	48ee	.
.	96cck	.
.	48g	.
.	96ggJJJk)	.
=57	=57	=57
48EELLL	[32g [32b- [32cc# [32ggLLL	.
96BB-k	.	.
48C#	48g] 48b-] 48cc#] 48gg]	.
96Ek	[96g 96b- 96cc# [96ggk	.
48F	32g_ [32bn [32dd 32gg_	.
96Bnk	.	.
48d	48g] 48b] 48dd] 48gg]	.
96fJJJk	96g 96b 96dd 96ggJJJk	.
(48D#LLL	[32g [32b [32ggLLL	.
96Gk	.	.
48B	48g] 48b] 48gg]	.
96d#k	[96g 96b [96ggJJJk	.
48E	32g_ [32ccn 32ggLLL_	.
96Gk	.	.
48c	48g] 48cc] 48gg]	.
96eJJJk)	96g 96cc 96ggJJJk	.
(48C#LLL	[32ee [32gg [32eeeLLL	.
96Ek	.	.
48G	48ee] 48gg] 48eee]	.
96cJJJk)	[96ee 96gg [96eeeJJJk	.
(48CCLLL	32ee] [32gg 32eeeLLL_	.
96EEk	.	.
48GG	48ee 48gg] 48eee]	.
96C#JJJk)	96cc 96ee 96cccJJJk	.
!!LO:LB:g=original
=58	=58	=58
*Xtuplet	*Xtuplet	*
[32GGG [32GGLLL	(48cccLLL	.
.	96aak	.
48GGG] 48GG]	48ff#	.
[96GGG [96GGk	96ee-k	.
32GGG_ 32GG_	48cc	.
.	96ak	.
48GGG] 48GG]	48f#	.
[96GGG [96GGJJJk	96e- 96ccJJJk)	.
32GGG_ 32GGLLL_	(48bbLLL	.
.	96ggk	.
48GGG] 48GG]	48dd	.
[96GGG [96GGk	96bk	.
32GGG_ 32GG_	48g	.
.	96dk	.
48GGG] 48GG]	48B)	.
!	!	!LO:DY:rj
[96FFFn 96FFnJJJk	[96b [96dd 96aa- [96bbJJJk	sf
(48FFFLLL]	32b_ 32dd_ [32aa- 32bbLLL_	.
96BBBk	.	.
48DD	48b] 48dd] 48aa-] 48bb]	.
96FFk	96b 96dd 96aa- [96bbk	.
48BB	[32b [32dd [32gg 32bb_	.
96Dk	.	.
48E	48b] 48dd] 48gg] 48bb]	.
96FJJJk)	96b 96dd 96gg 96bbJJJk	.
=59	=59	=59
32EE 32E	(48cccLLL	.
.	96ggk	.
32r	48eez>	.
.	96cck	.
32r	48g	.
.	96ek	.
48gLLL	48ee	.
96eJJJk	96ccJJJk)	.
48cLLL	48eeLLL	.
96Gk	96cck	.
48E	48ggz	.
96CJJJk	96eek	.
48eLLL	48cc	.
96ck	96gk	.
48G	48eez	.
96EJJJk	96ccJJJk	.
48eLLL	48ggLLL	.
96ck	96eek	.
48G	48cccz	.
96EJJJk	96ggk	.
48cLLL	48ee	.
96Gk	96cck	.
48E	48ggz	.
96CJJJk	96eeJJJk	.
!!LO:LB:g=original
=60	=60	=60
48ALLL	32r	.
96Gk	.	.
48E	48ggzLLL	.
96C#k	96eek	.
48AA	48cc#	.
96Gk	96eek	.
48E	48ggz	.
96C#JJJk	96eeJJJk	.
48ALLL	48ffLLL	.
96Fk	96ddk	.
48D	48ffz	.
96Fk	96ak	.
48D	48ff	.
96dk	96fk	.
48f	48a	.
96dJJJk	96fJJJk	.
48fLLL	48aLLL	.
96dk	96fk	.
48A	48ffz	.
96Fk	96ddk	.
48f	48a	.
96dk	96aak	.
48A	48ffz	.
96FJJJk	96ddJJJk	.
*clefG2	*	*
=61	=61	=61
48GLLL	48ccnLLL	.
96fk	96bk	.
48d	48ffz	.
96Bk	96ddk	.
48G	48bb	.
96Bk	96ffk	.
48d	48ddz	.
96fJJJk	96bJJJk	.
48A-LLL	48ddLLL	.
96a-k	96cck	.
48f	48aa-z	.
96ck	96ffk	.
48An	48ccc	.
96ck	96aank	.
48f	48ffz	.
96anJJJk	96ccJJJk	.
48B-LLL	48ee-LLL	.
96b-k	96ddk	.
48B-	48dddz	.
96b-k	96ddk	.
48B-	48ddd	.
96b-k	96ddk	.
48Bn	48dddz	.
96bnJJJk	96dd 96ggJJJk	.
!!LO:LB:g=original
=62	=62	=62
*>G1	*>G1	*>G1
*	*^	*
(48BLLL	[32ggLLL	(48ddLLL	.
96ck	.	96eenk	.
48d)	48gg]	48ff)	.
(96BJJJk	[96ggJJJk	96ddJJJk	.
48dLLL	32ggLLL_	48bLLL	.
96ek	.	96cck	.
48f)	48gg]	48dd	.
(96eJJJk	[96ggJJJk	96ccJJJk	.
48bLLL	32ggLLL_	48ddLLL	.
96cck	.	96eek	.
48dd)	48gg]	48ff	.
(96ccJJJk	96ggJJJk	96eeJJJk	.
48ddLLL	(48ffLLL>	16ryy	.
96eek	96ggk	.	.
48ff	48aa	.	.
96ddJJJk)	96bbJJJk)	.	.
*	*v	*v	*
=63:|!	=63:|!	=63:|!
*>G2	*>G2	*>G2
*	*^	*
(48BLLL	[32ggLLL	(48ddLLL	.
96ck	.	96eenk	.
48d)	48gg]	48ff)	.
(96BJJJk	96ggJJJk	(96dd 96ffJJJk	.
48dLLL	[32ggLLL	48bLLL	.
96ek	.	96cck	.
48f)	48gg]	48dd)	.
(96eJJJk	[96ggJJJk	(96ccJJJk	.
48bLLL	32ggLLL_	48ddLLL	.
96cck	.	96eek	.
48dd)	48gg]	48ff)	.
(96ccJJJk	[96ggJJJk	96eeJJJk	.
48ddLLL	32ggLLL_	48ffLLL	.
96bk	.	96ddk	.
48dd	48gg])	48ff	.
96ccJJJk)	96ggJJJk	96eeJJJk	.
48bLLL	48gg#LLL	48ddLLL	.
96ak	96aak	96cck	.
48g#JJJ	48bb	48bJJJ	.
96r	([96eJJJk	96r	.
*clefF4	*	*	*
(48GGG#LLL	48eLLL]	48BLLL	.
96AAAk	[96ek	96ck	.
48BBB)	48e]	48d	.
[96AAAJJJk	96eJJJk)	96cJJJk	.
*	*v	*v	*
!!LO:LB:g=original
=64!|:	=64!|:	=64!|:
*>H	*>H	*>H
48AAALLL]	[32e [32ccLLL	f
96CCk	.	.
48EE	48e] 48cc]	.
96GG#k	[96e [96cck	.
48AA	32e_ 32cc_	.
96Ck	.	.
48E	48e] 48cc]	.
96G#JJJk	96e 96ccJJJk	.
[32ALLL	(48cccLLL	p
.	96gg#k	.
48A]	48aa	.
96A 96c [96ek	96eek	.
[32A [32c 32e_	48dd	.
.	96cck	.
48A] 48c] 48e]	48ee	.
96A 96c [96eJJJk	96ccJJJk	.
[32A [32c 32eLLL_	48bLLL	.
.	96ak	.
48A] 48c] 48e]	48cc	.
96A 96c [96ek	96ak	.
[32A [32c 32e_	48b	.
.	96ak	.
48A] 48c] 48eJJJ]	48cc	.
96AAA 96AA	96d 96f 96bJJJk)	.
=65	=65	=65
(48GGG#LLL	[32d [32e [32bLLL	f
96BBBk	.	.
48EE	48d] 48e] 48b]	.
96GG#k	[96d 96e [96bk	.
48BB	32d_ [32e 32b_	.
96Ek	.	.
48G#	48d] 48e] 48b]	.
96AJJJk)	96d 96e 96bJJJk	.
[32G# [32B [32eLLL	48cccLLL	p
.	96bbk	.
48G#] 48B] 48e]	48eee	.
[96G# 96B [96ek	96bbk	.
32G#_ [32B 32e_	48aa	.
.	96gg#k	.
48G#] 48B] 48e]	48bb	.
[96G# 96B [96eJJJk	96eeJJJk	.
32G#] ([32B 32eLLL_	48bbLLL	.
.	96eek	.
48G# 48B]) 48e]	48ff	.
[96G# 96B [96ek	96ddk	.
32G#_ [32B 32e_	48cc	.
.	96bk	.
48G#] 48B] 48e]	48ee	.
96G# 96B 96eJJJk	96bJJJk	.
!!LO:LB:g=original
=66	=66	=66
[32GG#LLL	(48ccLLL	.
.	96bk	.
48GG#]	48ee	.
96G#k	96bk	.
[32AA	48dd	.
.	96cck	.
48AA]	48ee	.
96AJJJk	96ccJJJk	.
[32BBLLL	48eeLLL	.
.	96ddk	.
48BB]	48gg#	.
96Bk	96ddk	.
[32C	48ff	.
.	96eek	.
48C]	48aa	.
96cJJJk	96eeJJJk	.
[32DLLL	48aaLLL	.
.	96ffk	.
48D]	48aa	.
96dk	96bk	.
[32D#	48aa	.
.	96ff#k	.
48D#]	48aa	.
96dJJJk	[96ccJJJk	.
=67	=67	=67
[16eLL	48cc] (48aaLLL)	f
.	96bk	.
.	48aa	.
.	96ggJk)	.
48eL]	[16dd [16bbJJ	.
96Ek	.	.
48F	.	.
96EJJJk	.	.
[16ALL	48dd] (48bbLLL]	.
.	96cck	.
.	48bb	.
.	96aaJk)	.
48AL]	[16ee [16cccJJ	.
96AAk	.	.
48BB	.	.
96AAJJJk	.	.
[16GGnLL	48ee] (48cccLLL]	.
.	96ddk	.
.	48ccc	.
.	96bbJJJk)	.
48GGL]	[32ffn [32dddLLL	.
(96GGGk	.	.
48AAA-	48ff] 48ddd]	.
[96GGGJJJk)	96ff 96dddJJJk	.
!!LO:LB:g=original
=68	=68	=68
48GGGLLL]	32ff 32gg ([32bb [32dddLLL	.
(96BBBk	.	.
48DD	(48ff) 48gg 48bb] 48ddd]	.
96GGk	[96ff 96gg 96bb [96dddk	.
48BB	32ff] 32gg ([32bb 32ddd_	.
96Dk	.	.
48F#	(48ff) 48gg 48bb]) 48ddd]	.
96GJJJk)	[96ff 96gg 96bb [96dddJJJk	.
[32GG [32BB [32D [32FnLLL	48ff] 48gg 48bb (48dddLLL]	.
.	96bbk	.
48GG] 48BB] 48D] 48F]	48fff	.
[96GG 96BB 96D [96Fk	96dddJJJk	.
32GG_ [32BB [32D 32F_	48cccLLL	.
.	96bbk	.
48GG] 48BB] 48D] 48F]	48ddd	.
[96GG 96BB 96D [96FJJJk	96bbJJJk	.
32GG_ [32BB [32D 32FLLL_	48ggLLL	.
.	96ffk	.
48GG] 48BB] 48D] 48F]	48aa	.
[96GG [96BB [96D [96Fk	96ffk	.
32GG_ 32BB_ 32D_ 32F]	48ee	.
.	96ddk	.
48GG] 48BB] 48D] 48F	48ff	.
96GG 96BB 96D 96FJJJk	96ddJJJk)	.
=69	=69	=69
*	*^	*
(48CCLLL	8r	[32g [32cc [32eeLLL	.
96EEk	.	.	.
48GG	.	48g] 48cc] 48ee]	.
96BBk	.	[96g 96cc [96eek	.
48C	.	32g_ [32cc 32ee_	.
96Ek	.	.	.
48G	.	48g] 48cc] 48ee]	.
96BJJJk)	.	[96g 96cc [96eeJJJk	.
(48cLLL	48g] 48cc 48eeLLL]	16r	.
96fk	96g 96bk	.	.
48e	48a 48cc	.	.
96dJJJk)	96b 96ddJJJk	.	.
48cLLL	[16ee	48gLLL	.
(96CCk	.	96ek	.
48DD	.	48f	.
96EEJJJk	.	96gJJJk	.
48FFLLL)	(48eeLLL]	[16a	.
(96Gk	96cc#k	.	.
48F	48dd	.	.
96EJJJk)	96eeJk	.	.
48DLLL	[16ffJJ)	48aLLL]	.
(96DDk	.	96fk	.
48EE	.	48g	.
96FFJJJk)	.	96aJJJk	.
!!LO:LB:g=original
=70	=70	=70	=70
16GG	8r	48b (48ffLLL]	.
.	.	96a# 96cc#k	.
.	.	48b 48dd	.
.	.	96ccn 96eeJk)	.
(48GLLL	.	(16b [16ddJJ	.
96F#k	.	.	.
48G	.	.	.
96AJJJk)	.	.	.
[16B	48ddLLL]	[16g)	.
.	96cc#k	.	.
.	48dd	.	.
.	(96eeJk)	.	.
(48BLLL]	[16ddJJ	48gLLL]	.
96ck	.	96ank	.
48d	.	48b	.
96eJJJk	.	96ccnJJJk	.
48fLLL	(48ddLLL]	16b	.
96ek	96eek	.	.
48d	48ff	.	.
96cJJJk	96ff#Jk	.	.
48BLLL	[16ggJJ)	48r	.
96ck	.	96eeLLLK	.
48B	.	48dd	.
96AJJJk)	.	96ccJJJk	.
*	*v	*v	*
=71	=71	=71
*>H1	*>H1	*>H1
*	*^	*
48BLLL	48ggLLL]	48ddLLL	.
[96Bk	96aak	[96ddk	.
48B]	48gg	48dd]	.
[96BJJJk	96aak	[96ddJJJk	.
48BLLL]	48gg	48ddLLL]	.
(96Bk	96dd 96ffnk	[96gJJJk	.
48c	48cc 48ee	48gLLL]	.
96BJJJk	96dd 96ffJJJk	[96gJJJk	.
48cLLL)	48g] 48cc 48eeLLL	8r	.
96Bk	96g 96dd 96ffk	.	.
48c	48g 48cc 48ee	.	.
96dk	(96ddk	.	.
48e	48cc	.	.
96dk	96bk	.	.
48e	48cc	.	.
96cJJJk	96eeJJJk)	.	.
32r	(48eLLL	8r	.
.	96cc 96eek	.	.
48r	48e	.	.
[96EE	96b 96ddJJJk	.	.
32EELLL_	48eLLL	.	.
.	96a 96cck	.	.
48EE]	48e	.	.
96EEJJJk	96g#) 96bJJJk	.	.
*	*v	*v	*
!!LO:LB:g=original
=72:|!	=72:|!	=72:|!
*>H2	*>H2	*>H2
*	*^	*
48BLLL	48ggLLL	48ddLLL	.
[96Bk	96aak	[96ddk	.
48B]	48gg	48dd]	.
[96BJJJk	96aaJJJk	[96ddJJJk	.
48BLLL]	48ggLLL	48ddLLL]	.
(96Bk	96dd 96ffnk	[96gk	.
48c	48cc 48ee	48g]	.
96BJJJk	96dd 96ffJJJk	[96gJJJk	.
48cLLL)	48cc 48eeLLL	32g]	.
96AAk	(96c 96fk	.	>
(48GG	48B 48e	32r	.
96FFJJJk	96A 96dJJJk	.	.
*	*v	*v	*
*	*clefF4	*
*	*^	*
48EELLL	16c	48GLLL	.
96FFk	.	96Ak	.
48EE	.	48G	.
96DDJJJk)	.	96FJJJk)	.
*	*v	*v	*
=73	=73	=73
*>I	*>I	*>I
*M9/16	*M9/16	*
*MM40	*MM40	*
48CCLLL	16E 16cLL	pp
48GG	.	.
48CC	.	.
48GG	[16E [16G [16c	.
48CC	.	.
48GG	.	.
48CC	16E] 16G] 16cJJ]	.
48GG	.	.
48CCJJJ	.	.
=74	=74	=74
48GGLLL	16r	.
48CC	.	.
48GG	.	.
48CC	[16BB [16D [16F [16GLL	.
48GG	.	.
48CC	.	.
48GG	16BB] 16D] 16F] 16GJJ]	.
48CC	.	.
48GGJJJ	.	.
48CCLLL	16r	.
48GG	.	.
48CC	.	.
48GG	[16BB [16D [16F [16GLL	.
48CC	.	.
48GG	.	.
48CC	16BB] 16D] 16F] 16GJJ]	.
48GG	.	.
48CCJJJ	.	.
48GGLLL	16r	.
48CC	.	.
48GG	.	.
48CC	[16F [16G [16B [16dLL	.
48GG	.	.
48CC	.	.
48GG	16F] 16G] 16B] 16dJJ]	.
48CC	.	.
48GGJJJ	.	.
!!LO:LB:g=original
=75	=75	=75
48CCLLL	16r	.
48GG	.	.
48CC	.	.
48GG	16D 16F [16GLL	pp
48CC	.	.
48GG	.	.
48CC	16C 16E 16GJJ]	.
48GG	.	.
48CCJJJ	.	.
48GGLLL	16r	.
48CC	.	.
48GG	.	.
48CC	[16C [16E [16GLL	.
48GG	.	.
48CC	.	.
48GG	16C] 16E] 16GJJ]	.
48CC	.	.
48GGJJJ	.	.
48CCLLL	16r	.
48GG	.	.
48CC	.	.
48GG	[16D [16F [16GLL	.
48CC	.	.
48GG	.	.
48CC	16D] 16F] 16GJJ]	.
48GG	.	.
48CCJJJ	.	.
=76	=76	=76
48GGLLL	16r	.
48CC	.	.
48GG	.	.
48CC	16D# 16F# [16GLL	.
48GG	.	.
48CC	.	.
48GG	16E 16GJJ]	.
48CC	.	.
48GGJJJ	.	.
48CCLLL	16r	.
48GG	.	.
48CC	.	.
48GG	[16E [16G [16eLL	.
48CC	.	.
48GG	.	.
48CC	16E] 16G] 16eJJ]	.
48GG	.	.
48CCJJJ	.	.
48GGLLL	16r	.
48CC	.	.
48GG	.	.
48CC	[16E- [16F# [16A [16cLL	.
48GG	.	.
48CC	.	.
48GG	16E-] 16F#] 16A] 16cJJ]	.
48CC	.	.
48GGJJJ	.	.
!!LO:LB:g=original
=77	=77	=77
48CCLLL	16r	.
48GG	.	.
48CC	.	.
48GG	[16D [16Fn [16A- [16cLL	.
48CC	.	.
48GG	.	.
48CC	16D] 16F] 16A-] 16cJJ]	.
48GG	.	.
48CCJJJ	.	.
48GGLLL	16r	.
48CC	.	.
48GG	.	.
48CC	[16D [16F [16A- [16BLL	.
48GG	.	.
48CC	.	.
48GG	16D] 16F] 16A-] 16BJJ]	.
48CC	.	.
48GGJJJ	.	.
48CCLLL	16r	.
48GG	.	.
48CC	.	.
48GG	[16D [16F [16G [16BLL	.
48CC	.	.
48GG	.	.
48CC	16D] 16F] 16G] 16BJJ]	.
48GG	.	.
48CCJJJ	.	.
=78	=78	=78
48GGLLL	16r	.
48CC	.	.
48GG	.	.
48CC	16D# 16F# [16cLL	.
48GG	.	.
48CC	.	.
48GG	16E 16G 16cJJ]	.
48CC	.	.
48GGJJJ	.	.
48CCLLL	16r	.
48GG	.	.
48CC	.	.
48GG	[16G 16B [16eLL	.
48CC	.	.
48GG	.	.
48CC	16G] 16c 16eJJ]	.
48GG	.	.
48CCJJJ	.	.
48GGLLL	16r	.
48CC	.	.
48GG	.	.
*	*clefG2	*
48CC	[16B- (16d- [16e [16gLL	.
48GG	.	.
48CC	.	.
48GG	16B-] 16d- 16e]) 16gJJ]	.
48CC	.	.
48GGJJJ	.	.
!!LO:LB:g=original
=79	=79	=79
48CCLLL	16r	.
48GG	.	.
48CC	.	.
48GG	[16B- [16d- [16e [16gLL	.
48CC	.	.
48GG	.	.
48CC	16B-] 16d-] 16e] 16gJJ]	.
48GG	.	.
48CCJJJ	.	.
48AALLL	16r	.
48CC	.	.
48AA	.	.
*	*clefF4	*
48CC	[16F [16c [16fLL	.
48AA	.	.
48CC	.	.
48AA	16F] 16c] 16fJJ]	.
48CC	.	.
48AAJJJ	.	.
48CCLLL	16r	.
48BB	.	.
48CC	.	.
48BB	[16F [16A- [16dnLL	.
48CC	.	.
48BB	.	.
48CC	16F] 16A-] 16dJJ]	.
48BB	.	.
48CCJJJ	.	.
=80	=80	=80
48DLLL	16r	.
48CC	.	.
48D	.	.
48CC	16F 16A- ([16BnLL	.
48D	.	.
48CC	.	.
48D	16F (16G) 16BJJ])	.
48CC	.	.
48DJJJ	.	.
48CCLLL	16r	.
48C	.	.
48CC	.	.
48C	16F [16G [16cLL	.
48CC	.	.
48C	.	.
48CC	16E 16G] 16cJJ]	.
48C	.	.
48CCJJJ	.	.
48BBLLL	16r	.
48CC	.	.
48BB	.	.
48CC	[16F [16G 16dLL	.
48BB	.	.
48CC	.	.
48BB	16D 16F] 16GJJ]	.
48CC	.	.
48BBJJJ	.	.
*	*clefG2	*
!!LO:LB:g=original
=81	=81	=81
48BBLLL	48GLLL	<
48C	48A	.
48D	48B	.
48E	48c	.
48F	48d	.
48G	48e	.
48A	48f	.
48B	48g	.
48cJJJ	48aJJJ	.
*clefG2	*	*
48dLLL	48bLLL	.
48e	48cc	.
48f	48dd	.
48g	48ee	.
48a	48ff	.
48b	48gg	.
48cc	48aa	.
48ee	48gg	.
48ddJJJ	48bbJJJ	.
16ee'LL	48cccLLL	pp
.	48ddd	.
.	48ccc	.
16ee'	48bb	.
.	48ccc	.
.	48bb	.
16ee'JJ	48ccc	.
.	48ddd	.
.	48cccJJJ	.
=82	=82	=82
16ee'LL	48ggLLL	.
.	48aa	.
.	48gg	.
16dd#'	48ff#	.
.	48gg	.
.	48ff#	.
16ee'JJ	48gg	.
.	48aa	.
.	48ggJJJ	.
16dd#'LL	48ff#LLL	.
.	48gg	.
.	48ff#	.
16ee'	48gg	.
.	48aa	.
.	48gg	.
16ee' 16gg'JJ	48ccc#	.
.	48ddd	.
.	48ccc#JJJ	.
16ffn' 16gg'LL	48dddLLL	.
.	48eee	.
.	48ddd	.
16ee' 16gg'	48ccc#	.
.	48ddd	.
.	48ccc#	.
16ff' 16gg'JJ	48ddd	.
.	48eee	.
.	48dddJJJ	.
!!LO:LB:g=original
=83	=83	=83
16ee' 16gg'LL	48ccc#LLL	.
.	48ddd	.
.	48ccc#	.
16ff' 16gg'	48ddd	.
.	48eee	.
.	48ddd	.
16b' 16ff'JJ	48gg	.
.	48aa	.
.	48ggJJJ	.
16cc' 16ff'LL	48aaLLL	.
.	48bb	.
.	48aa	.
16b' 16ff'	48gg	.
.	48aa	.
.	48gg	.
16ddn' 16ff'JJ	48bb	.
.	48cccn	.
.	48bbJJJ	.
16ee' 16gg'LL	48cccLLL	.
.	48ddd	.
.	48ccc	.
16ff' 16gg'	48ddd	.
.	48eee	.
.	48ddd	.
16ff#' 16gg'JJ	48ddd	.
.	48eee#	.
.	48dddJJJ	.
=84	=84	=84
48ggLLL	48eeeLLL	.
48ffn	48aa	.
48ee	48gg	.
48dd#	48ff#	.
48ff	48aa	.
48ee	48gg	.
48dd#	48ff#	.
48ff	48aa	.
48eeJJJ	48ggJJJ	.
48dd#LLL	48ff#LLL	.
48ee	48gg	.
48ff	48gg#	.
48ff#	48aa	.
48gg	48bb-	.
48gg#	48bbn	.
48aa	48ccc	.
48aa#	48ccc#	.
48bbJJJ	48dddnJJJ	.
16ccc'LL	48eeeLLL	.
.	48fff	.
.	48eee	.
16ffn' 16ggn'	48ddd	.
.	48eee	.
.	48ddd	.
16ee' 16gg'JJ	48cccn	.
.	48ddd	.
.	48cccJJJ	.
!!LO:LB:g=original
=85	=85	=85
16ee' 16gg'LL	48bbLLL	.
.	48ddd	.
.	48ccc	.
16dd' 16gg'	48aa#	.
.	48ccc	.
.	48bb	.
16ee' 16gg'JJ	48ccc	.
.	48ddd	.
.	48cccJJJ	.
16dd' 16gg'LL	48bbLLL	.
.	48ccc	.
.	48bb	.
16cc#' 16gg'	48aa#	.
.	48bb	.
.	48aa#	.
16dd' 16gg'JJ	48bb	.
.	48ccc	.
.	48bbJJJ	.
16ff' 16gg'LL	48ccc#LLL	.
.	48eee	.
.	48ddd	.
16cc#' 16gg'	48eee	.
.	48fff	.
.	48eee	.
16dd' 16gg'JJ	48fff	.
.	48ggg	.
.	48fffJJJ	.
=86	=86	=86
16ee'LL	48ggLLL	.
.	48ggg	.
.	48gg	.
16ee'	48cccn	.
.	48ggg	.
.	48ccc	.
16dd'JJ	48bb	.
.	48ggg	.
.	48bbJJJ	.
16eeLL	48cccLLL	.
.	48ggg	.
.	48ddd	.
16ccc'	48ddd#	.
.	48ggg	.
.	48eee	.
16ddd'JJ	48fff	.
.	48ggg	.
.	48fffJJJ	.
16eee'LL	48ggg#LLL	.
.	48aaa	.
.	48fff	.
16eee'	48ggg#	.
.	48fff	.
.	48ggg#	.
16ee' 16bb-'JJ	48ccc#	.
.	48aaa	.
.	48ggg#JJJ	.
!!LO:LB:g=original
=87	=87	=87
16ee' 16bb-'LL	48ccc#LLL	.
.	48aaa	.
.	48ggg	.
16ee' 16gg'	48ccc#	.
.	48fffn	.
.	48eee	.
16ee' 16bb-'JJ	48ccc#	.
.	48aaa	.
.	48gggJJJ	.
16ee' 16bb-'LL	48ccc#LLL	.
.	48aaa	.
.	48ggg	.
16ff' 16aa'	48dddn	.
.	48ggg	.
.	48fff	.
16ff'JJ	48aa	.
.	48eee	.
.	48dddJJJ	.
16ff'LL	48aa-LLL	.
.	48eee	.
.	48ddd	.
16ff'	48gg	.
.	48eee	.
.	48ddd	.
16ee'JJ	48gg	.
.	48ddd	.
.	48cccnJJJ	.
=88	=88	=88
16ee'LL	48ggLLL	.
.	48ddd	.
.	48ccc	.
16dd'	48ff	.
.	48ccc	.
.	48bb	.
16ee'JJ	48gg	.
.	48ddd	.
.	48cccJJJ	.
16ee'LL	48ggLLL	.
.	48ddd	.
.	48ccc	.
16ee'	48gg	.
.	48ddd	.
.	48ccc#	.
16ff'JJ	48aan	.
.	48eee	.
.	48dddJJJ	.
16ff#'LL	48aaLLL	.
.	48eee	.
.	48ddd	.
16gg'	48bb	.
.	48eee	.
.	48ddd	.
16b' 16ffn'JJ	48ccc#	.
.	48ddd	.
.	48ggJJJ	.
!!LO:LB:g=original
=89	=89	=89
16b' 16ff'LL	48aaLLL	.
.	48ff#	.
.	48gg	.
16cc' 16ee'	48aa	.
.	48ff#	.
.	48gg	.
16dd' 16ff'JJ	48aa	.
.	48ff#	.
.	48ggJJJ	.
16dd' 16ff'LL	48aaLLL	.
.	48ff#	.
.	48gg	.
16cc' 16ee'	48aa	.
.	48ff#	.
.	48gg	.
16b' 16dd'JJ	48aa	.
.	48gg#	.
.	48eeeJJJ	.
16a' 16cc'LL	48bbLLL	.
.	48aa	.
.	48eee	.
16g#' 16b'JJ	48ccc	.
.	48bb	.
.	48eeeJJJ	.
*clefF4	*	*
48ELLL	16r	pp
48EE	.	.
48EJJJ	.	.
=90	=90	=90
48EELLL	16r	.
48E	.	.
48EE	.	.
*	*clefF4	*
48E	(16B [16cLL	pp
48EE	.	.
48E	.	.
48EE	16A 16cJJ])	.
48E	.	.
48EEJJJ	.	.
48ELLL	16r	.
48EE	.	.
48E	.	.
48EE	(16B [16cLL	.
48E	.	.
48EE	.	.
48E	16A) 16cJJ]	.
48EE	.	.
48EJJJ	.	.
48EELLL	16r	.
48E	.	.
48EE	.	.
48E	16B ([16cLL	.
48EE	.	.
48E	.	.
48EE	16A 16cJJ])	.
48E	.	.
48EEJJJ	.	.
!!LO:LB:g=original
=91	=91	=91
48ELLL	16r	.
48EE	.	.
48E	.	.
48EE	(16A [16BLL	.
48E	.	.
48EE	.	.
48E	16G#) 16BJJ]	.
48EE	.	.
48EJJJ	.	.
48EELLL	16r	.
48E	.	.
48EE	.	.
48E	(16A [16BLL	.
48EE	.	.
48E	.	.
48EE	16G#) 16BJJ]	.
48E	.	.
48EEJJJ	.	.
48ELLL	16r	.
48EE	.	.
48E	.	.
48EE	16A [16B [16eLL	.
48E	.	.
48EE	.	.
48E	16G# 16B] 16eJJ]	.
48EE	.	.
48EJJJ	.	.
=92	=92	=92
48EELLL	16r	.
48E	.	.
48EE	.	.
48E	(16G# [16c [16eLL	.
48EE	.	.
48E	.	.
48EE	16A) 16c] 16eJJ]	.
48E	.	.
48EEJJJ	.	.
48ELLL	16r	.
48EE	.	.
48E	.	.
48EE	(16G# [16c [16eLL	.
48E	.	.
48EE	.	.
48E	16A) 16c] 16eJJ]	.
48EE	.	.
48EJJJ	.	.
48EELLL	16r	.
48E	.	.
48EE	.	.
48E	16B (16dLL	.
48EE	.	.
48E	.	.
48EE	16A 16cJJ)	.
48E	.	.
48EEJJJ	.	.
!!LO:LB:g=original
=93	=93	=93
48ELLL	16r	.
48EE	.	.
48E	.	.
48EE	[16D# [16F# [16A [16cLL	.
48E	.	.
48EE	.	.
48E	16D#] 16F#] 16A] 16cJJ]	.
48EE	.	.
48EJJJ	.	.
48EELLL	16r	.
48E	.	.
48EE	.	.
48E	[16Dn (16Fn [16G# [16BLL	.
48EE	.	.
48E	.	.
48EE	16D]) 16F 16G#] 16BJJ]	.
48E	.	.
48EEJJJ	.	.
48AALLL	16r	.
48AAA	.	.
48AA	.	.
48AAA	[16E [16A [16cLL	.
48AA	.	.
48AAA	.	.
48AA	16E] 16A] 16cJJ]	.
48AAA	.	.
48AAJJJ	.	.
=94	=94	=94
48GGGnLLL	16r	.
48GGn	.	.
48GGG	.	.
48GG	[16F (16c [16dLL	.
48GGG	.	.
48GG	.	.
48GGG	16F] 16B) 16dJJ]	.
48GG	.	.
48GGGJJJ	.	.
48GGLLL	16r	.
48GGG	.	.
48GG	.	.
48GGG	(16C [16DLL	.
48GG	.	.
48GGG	.	.
48GG	16BB) 16DJJ]	.
48GGG	.	.
48GGJJJ	.	.
48GGGLLL	16r	.
48GG	.	.
48GGG	.	.
48GG	[16F (16c [16dLL	.
48GGG	.	.
48GG	.	.
48GGG	16F] 16B) 16dJJ]	.
48GG	.	.
48GGGJJJ	.	.
!!LO:LB:g=original
=95	=95	=95
48GGLLL	16r	.
48GGG	.	.
48GG	.	.
48GGG	[16Gn (16d [16eLL	.
48GG	.	.
48GGG	.	.
48GG	16G] 16c) 16eJJ]	.
48GGG	.	.
48GGJJJ	.	.
48GGGLLL	16r	.
48GG	.	.
48GGG	.	.
48GG	(16D [16ELL	.
48GGG	.	.
48GG	.	.
48GGG	16C) 16EJJ]	.
48GG	.	.
48GGGJJJ	.	.
48GGLLL	16r	.
48GGG	.	.
48GG	.	.
48GGG	16A- ([16B 16d [16fLL	.
48GG	.	.
48GGG	.	.
48GG	(16G) 16B] 16d) 16fJJ]	.
48GGG	.	.
48GGJJJ	.	.
=96	=96	=96
48GGGLLL	16r	.
48GG	.	.
48GGG	.	.
48GG	(16C [16DLL	.
48GGG	.	.
48GG	.	.
48GGG	16BB) 16DJJ]	.
48GG	.	.
48GGGJJJ	.	.
48GGLLL	16r	.
48GGG	.	.
48GG	.	.
48GGG	(16C [16D [16GLL	.
48GG	.	.
48GGG	.	.
48GG	16BB 16D]) 16GJJ]	.
48GGG	.	.
48GGJJJ	.	.
48GGGLLL	16r	.
48GG	.	.
48GGG	.	.
*	*clefG2	*
48GG	(16c 16d [16gLL	.
48GGG	.	.
48GG	.	.
48GGG	(16B) 16d) 16gJJ]	.
48GG	.	.
48GGGJJJ	.	.
!!LO:LB:g=original
=97	=97	=97
*	*clefF4	*
48GGLLL	16r	.
48GGG	.	.
48GG	.	.
48GGG	16BB 16D (16GLL	.
48GG	.	.
48GGG	.	.
48GG	(16C) 16EJJ)	.
48CC	.	.
48GGJJJ	.	.
48CCLLL	16r	.
48GG	.	.
48CC	.	.
48GG	16c (16eLL	.
48CC	.	.
48GG	.	.
48CC	16EJJ)	.
48GG	.	.
48CCJJJ	.	.
48GG#LLL	16r	.
48BBB	.	.
48GG#	.	.
*	*clefG2	*
48BBB	(16dd 16eeLL	.
48GG#	.	.
48BBB	.	.
48GG#	16d) 16eJJ	.
48BBB	.	.
48GG#JJJ	.	.
=98	=98	=98
16AAA' 16AA'	16e' 16cc' 16ee'	.
*clefG2	*	*
16ee'LL	48cccLLL	pp
.	48ddd	.
.	48bb	.
16ee'JJ	48ccc	.
.	48bb	.
.	48aaJJJ	.
16ee'LL	48gg#LLL	.
.	48aa	.
.	48bb	.
16ee'	48aa	.
.	48bb	.
.	48ccc	.
16ee'JJ	48bb	.
.	48ccc	.
.	48dddJJJ	.
16ee'LL	48cccLLL	.
.	48ddd	.
.	48ccc	.
16ee'	48bb	.
.	48ccc	.
.	48ddd	.
16ee'JJ	48ccc	.
.	48bb	.
.	48aaJJJ	.
!!LO:LB:g=original
=99	=99	=99
16ee'LL	48bbLLL	.
.	48ccc	.
.	48ddd	.
16ee'	48ccc	.
.	48bb	.
.	48aa	.
16ee'JJ	48gg#	.
.	48aa	.
.	48bbJJJ	.
16ee'LL	48gg#LLL	.
.	48aa	.
.	48bb	.
16ee'	48aa	.
.	48bb	.
.	48ccc	.
16ee'JJ	48bb	.
.	48ccc	.
.	48dddJJJ	.
16ee'LL	48bbLLL	.
.	48ccc	.
.	48ddd	.
16ee'	48fff	.
.	48eee	.
.	48ddd	.
16ee'JJ	48ccc	.
.	48bb	.
.	48eeeJJJ	.
=100	=100	=100
16ee'LL	48aaLLL	pp
.	48gg#	.
.	48eee	.
16ee'	48bb	.
.	48aa	.
.	48eee	.
16ee'JJ	48ccc	.
.	48bb	.
.	48eeeJJJ	.
16ee'LL	48dddLLL	.
.	48ccc	.
.	48eee	.
16ee'	48ccc	.
.	48bb	.
.	48eee	.
16ee'JJ	48ddd	.
.	48ccc	.
.	48eeeJJJ	.
16ee'LL	48dddLLL	.
.	48ccc	.
.	48eee	.
16ee'	48ccc	.
.	48bb	.
.	48ddd	.
16ee'JJ	48bb	.
.	48aa	.
.	48cccJJJ	.
!!LO:LB:g=original
=101	=101	=101
16ee'LL	48bbLLL	.
.	48aa	.
.	48ccc	.
16ee'	48bb	.
.	48ddd	.
.	48ccc	.
16ee'JJ	48bb	.
.	48aa	.
.	48cccJJJ	.
16ee'LL	48aaLLL	.
.	48gg#	.
.	48bb	.
16ee'	48aa	.
.	48ccc	.
.	48bb	.
16ee'JJ	48aa	.
.	48gg#	.
.	48bbJJJ	.
16a'LL	48cccLLL	.
.	48ddd	.
.	48ccc	.
16aa'	48bb	.
.	48ccc	.
.	48bb	.
16aa-'JJ	48ccc	.
.	48ddd	.
.	48cccJJJ	.
=102	=102	=102
16gg'LL	48dddLLL	.
.	48eee	.
.	48ccc#	.
16gg'	48ddd	.
.	48bb	.
.	48cccn	.
16gg'JJ	48aa#	.
.	48bb	.
.	48aanJJJ	.
16gg'LL	48bbLLL	.
.	48aa	.
.	48ccc	.
16gg'	48bb	.
.	48ddd	.
.	48ccc	.
16gg'JJ	48ddd	.
.	48ccc#	.
.	48eee-JJJ	.
16gg'LL	48dddLLL	.
.	48eeen	.
.	48ddd	.
16gg'	48fff	.
.	48ddd	.
.	48eee	.
16gg'JJ	48ddd	.
.	48fff	.
.	48dddJJJ	.
!!LO:LB:g=original
=103	=103	=103
16gg'LL	48eeeLLL	.
.	48fff	.
.	48ddd	.
16gg'	48eee#	.
.	48ccc#	.
.	48dddn	.
16gg'JJ	48bb	.
.	48ddd	.
.	48cccnJJJ	.
16gg'LL	48dddLLL	.
.	48eee#	.
.	48ddd	.
16gg	48eee#	.
.	48fff	.
.	48eee#	.
16gg'JJ	48fff	.
.	48ddd#	.
.	48eee#JJJ	.
16aan'LL	48fffLLL	.
.	48ggg	.
.	48eee#	.
16gg#'	48fff	.
.	48eee#	.
.	48fff	.
16aa'JJ	48eee#	.
.	48ggg	.
.	48fffJJJ	.
=104	=104	=104
16bb-'LL	48dddnLLL	.
.	48fff	.
.	48ddd	.
16bb-'	48fff	.
.	48ddd	.
.	48fff	.
16bb-'JJ	48ddd	.
.	48fff	.
.	48dddJJJ	.
16bb-'LL	48fffLLL	.
.	48ddd	.
.	48fff	.
16bb-'	48ddd	.
.	48fff#	.
.	48ddd	.
16bb-'JJ	48fff#	.
.	48ddd	.
.	48fff#JJJ	.
16bbnLL	48dddLLL	.
.	48fff#	.
.	48ddd	.
16bb'	48ggg	.
.	48ddd	.
.	48ggg	.
16bb'JJ	48ddd	.
.	48ggg	.
.	48dddJJJ	.
!!LO:LB:g=original
=105	=105	=105
16bbLL	48gggLLL	.
.	48ddd	.
.	48ggg	.
16gg 16bb	48fff	.
.	48ggg	.
.	48ddd	.
16cccJJ	48fff	.
.	48ddd	.
.	48eeeJJJ	.
16cccLL	48gggLLL	.
.	48fff	.
.	48eee	.
16cc 16ee 16gg	48fff	.
.	48eee	.
.	48ddd	.
16cc 16ee 16ggJJ	48fff	.
.	48eee	.
.	48cccJJJ	.
16cc 16ee 16ggLL	48gggLLL	.
.	48fff	.
.	48eee	.
16cc 16ee 16gg	48fff	.
.	48eee	.
.	48ddd	.
16cc 16ee 16ggJJ	48fff	.
.	48eee	.
.	48cccJJJ	.
=106	=106	=106
16cc 16dd 16ff 16ggLL	48fffLLL	.
.	48eee	.
.	48ddd	.
16cc 16dd 16ff 16gg	48eee	.
.	48ddd	.
.	48bb	.
16cc 16dd 16ff 16ggJJ	48ddd	.
.	48ccc	.
.	48bbJJJ	.
16cc 16dd 16ff 16ggLL	48fffLLL	.
.	48eee	.
.	48ddd	.
16cc 16dd 16ff 16gg	48eee	.
.	48ddd	.
.	48bb	.
16cc 16dd 16ff 16ggJJ	48ddd	.
.	48ccc	.
.	48bbJJJ	.
16cc 16dd 16ff 16ggLL	48fffLLL	.
.	48eee	.
.	48ddd	.
16cc 16dd 16ff 16gg	48eee	.
.	48ddd	.
.	48bb	.
16cc 16dd 16ff 16ggJJ	48ddd	.
.	48ccc	.
.	48bbJJJ	.
!!LO:LB:g=original
=107	=107	=107
16cc 16ee 16ggLL	48gggLLL	.
.	48fff	.
.	48eee	.
16cc 16ee 16gg	48fff	.
.	48eee	.
.	48ddd	.
16cc 16ee 16ggJJ	48fff	.
.	48eee	.
.	48cccJJJ	.
48ggLLL	8.r	.
48ff	.	.
48ee	.	.
48ff	.	.
48ee	.	.
48dd	.	.
48ff	.	.
48ee	.	.
48ccJJJ	.	.
16ccLL	48ggLLL	.
.	48ff	.
.	48ee	.
16c 16e 16g	48ff	.
.	48ee	.
.	48dd	.
16c 16e 16gJJ	48ff	.
.	48ee	.
.	48ccJJJ	.
=108	=108	=108
16c 16d 16f 16gLL	48ffLLL	.
.	48ee	.
.	48dd	.
16c 16d 16f 16g	48ee	.
.	48dd	.
.	48b	.
16c 16d 16f 16gJJ	48dd	.
.	48cc	.
.	48bJJJ	.
16c 16d 16f 16gLL	48ffLLL	.
.	48ee	.
.	48dd	.
16c 16d 16f 16g	48ee	.
.	48dd	.
.	48b	.
16c 16d 16f 16gJJ	48dd	.
.	48cc	.
.	48bJJJ	.
16c 16d 16f 16gLL	48ffLLL	.
.	48ee	.
.	48dd	.
16c 16d 16f 16g	48ee	.
.	48dd	.
.	48b	.
16c 16d 16f 16gJJ	48dd	.
.	48cc	.
.	48bJJJ	.
*clefF4	*	*
!!LO:LB:g=original
=109	=109	=109
48CLLL	8.r	.
48c	.	.
48e	.	.
48E	.	.
48c	.	.
48e	.	.
48G	.	.
48c	.	.
48eJJJ	.	.
48BLLL	8.cc 8.eeL	<
48c	.	.
48e	.	.
48G	.	.
48c	.	.
48e	.	.
48F	.	.
48c	.	.
48eJJJ	.	.
48ELLL	[8.cc [8.eeJ	.
48c	.	.
48e	.	.
48D	.	.
48c	.	.
48e	.	.
48C	.	.
48c	.	.
48eJJJ	.	.
=110	=110	=110
48AALLL	8.cc] 8.ee]	.
48c	.	.
48e	.	.
48C	.	.
48A	.	.
48c	.	.
48E	.	.
48A	.	.
48cJJJ	.	.
48G#LLL	8.ee 8.ccc 8.eeeL	.
48A	.	.
48c	.	.
48E	.	.
48A	.	.
48c	.	.
48D	.	.
48A	.	.
48cJJJ	.	.
48CLLL	8.ee 8.ccc 8.eeeJ	.
48A	.	.
48c	.	.
48BB	.	.
48A	.	.
48c	.	.
48AA	.	.
48A	.	.
48cJJJ	.	.
!!LO:LB:g=original
=111	=111	=111
48GGnLLL	8.ee 8.ccc 8.eeeL	.
48Gn	.	.
48c	.	.
48C	.	.
48G	.	.
48c	.	.
48E	.	.
48G	.	.
48cJJJ	.	.
48GGLLL	8.ff 8.ddd 8.fff	>
48G	.	.
48B	.	.
48BB	.	.
48G	.	.
48B	.	.
48D	.	.
48G	.	.
48BJJJ	.	.
48GGLLL	8dd 8bb 8dddJ	.
48D	.	.
48G	.	.
48GG	.	.
48F	.	.
48G	.	.
*	*clefF4	*
48GG	48GGGLLL	.
48AA	48AAA	.
48BBJJJ	48BBBJJJ	.
=112	=112	=112
16r	48CCLLL	.
.	48EE	.
.	48GGJJJ	<
48CLLL	16r	.
48E	.	.
48GJJJ	.	.
*	*clefG2	*
16r	48cLLL	.
.	48e	.
.	48gJJJ	.
8.r	48ccLLL	.
.	48ee	.
.	48gg	.
.	48ee	.
.	48gg	.
.	48cccJ	.
.	[16eeeJJ	.
8.r	48eeeLLL]	.
.	48bb	.
.	48ccc	.
.	48ddd	.
.	48bb	.
.	48ccc	.
.	48eee	.
.	48bb	.
.	48cccJJJ	.
!!LO:LB:g=original
=113	=113	=113
48AAALLL	16r	.
48CC	.	.
48EEJJJ	.	.
*	*clefF4	*
16r	48AALLL	.
.	48C	.
.	48EJJJ	.
48ALLL	16r	.
48c	.	.
48eJJJ	.	.
*	*clefG2	*
8.r	48aLLL	.
.	48cc	.
.	48ee	.
.	48cc	.
.	48ee	.
.	48aa	.
.	64eeL	.
.	64aa	.
.	64ccc	.
.	[64eeeJJJJ	.
8.r	48eeeLLL]	.
.	48bb	.
.	48ccc	.
.	48ee	.
.	48bb	.
.	48ccc	.
.	48eee	.
.	48bb	.
.	48cccJJJ	.
=114	=114	=114
48GGGLLL	16r	.
48CC	.	.
48EE	.	.
48GG	48eeeLLL	.
48C	48ccc	.
48EJ	48ee	.
16GJJ	48eee	.
.	48ccc#	.
.	48eeJJJ	.
48GGGLLL	16r	.
48BBB	.	.
48DD	.	.
48GG	48fffLLL	.
48BB	48ddd	.
48DJ	48ff	.
16GJJ	48fff	.
.	48ddd	.
.	48ffJJJ	.
8.r	48eeeLLL	.
.	48ccc#	.
.	48ee	.
.	48fff	.
.	48ddd	.
.	48ff	.
.	48ddd	.
.	48bb	.
.	48ddJJJ	.
!!LO:LB:g=original
=115	=115	=115
4.r	[4.dd	f
(8CC 8CL	8.dd_	f
16GGG) 16GGJk	.	.
=116	=116	=116
*	*^	*
4.GGG 4.GG	4.r	4.dd_	.
*clefG2	*	*	*
(8ccL	(8aaL	8.dd_	p
16bJk)	16ggJk)	.	.
=117	=117	=117	=117
4.b	4.gg	8.dd]	.
.	.	[4.dd	.
(8ccL	(8aa-L	.	.
16bJk)	16ggJk)	.	.
=118	=118	=118	=118
8.bL	8.ggL	4.dd_	.
8.b	8.gg	.	.
8.bJ	8.ggJ	8.dd_	.
=119	=119	=119	=119
(8.bL	(8.ggL	4.dd_	p
8.b-J)	8.aa-)	.	.
*clefF4	*	*	*
(8FF 8FL	8.aa-J	8.dd_	.
16BBB-) 16BB-Jk	.	.	.
=120	=120	=120	=120
4.BBB- 4.BB-	8.aa-L	4.dd_	.
.	8.aa-	.	.
*clefG2	*	*	*
(8fL	8.aa-J	8.dd]	.
16B-Jk)	.	.	.
=121	=121	=121	=121
*^	*	*	*
[4.f	8.B-L	[4.aa-	[4.dd	<
.	8.B-	.	.	.
8.f_	8.B-J	8.aa-_	8.dd_	.
=122	=122	=122	=122	=122
4.f_	8.B-L	4.aa-_	4.dd_	>
.	8.B-	.	.	.
8.f_	8.B-J	8.aa-_	8.dd_	.
!!LO:LB:g=original
=123	=123	=123	=123	=123
8.f]	8.B-	4.aa-]	8.ddL]	p
8.r	4.r	.	8.aan	.
8.r	.	8.r	[8.bb-J	.
*v	*v	*	*	*
*	*v	*v	*
=124	=124	=124
8.r	8.bb-L]	.
8.r	8.bbn	.
8.r	[8.cccJ	.
*clefF4	*	*
=125	=125	=125
*k[b-e-a-]	*k[b-e-a-]	*
8.r	8.cccL]	.
8.r	8.ccc#	.
[8.BBB-	[8.dddJ	>
=126	=126	=126
4.BBB-_	4.ddd_	>
(8BBB-L]	8.ddd]	.
16AAA-Jk)	.	.
=127	=127	=127
*	*8va	*
4.GGG	(8.eee-L	p
.	8.ggg	.
8.GGG-	[8.bbb-J	.
=128	=128	=128
*	*^	*
([8.FFF)	4.r	8bbb-L]	.
.	.	16aaanJk	.
(8FFFL]	.	16aaa-LL	.
.	.	16aa-	.
*	*X8va	*X8va	*
16GGGnk	.	16b- 16ggJJ)	.
8AAA-	(16ggLL	8ccL	.
.	16ff)	.	.
16AAAnJk)	16ee-JJ	16ccJk	.
!!LO:LB:g=original
=129	=129	=129	=129
8BBB-	16ee-LK	16f 16a-LL	p
.	8ddJ	16f 16a-	.
16r	.	16f 16a-JJ	.
8.r	16r	16f 16a-LL	.
.	8ee-	16f 16a-	.
.	.	16f 16a-JJ	.
8.r	16r	16f 16a-LL	.
.	16ffLL	16f 16a-	.
.	16b-JJ	16a-JJ	.
=130	=130	=130	=130
16r	8b-	16gLL	p
8EE- 8E-	.	16g	.
.	16r	16gJJ	.
16r	8.r	16g'LL	.
8FF 8F	.	16g	.
.	.	16gJJ	.
16r	8.r	16e- 16gLL	.
(16GG 16GLL	.	16e- 16g	.
16CC 16CJJ	.	16e- 16gJJ	.
=131	=131	=131	=131
8BBBn') 8BBn'	16r	16f 16gLL	.
.	8bn	16f 16g	.
16r	.	16f 16gJJ	.
8.r	16r	16f 16gLL	.
.	8cc	16f 16g	.
.	.	16f 16gJJ	.
8.r	16r	16f 16gLL	.
.	16ddLL	16f 16g	.
.	16gJJ	(16fJJ)	.
=132	=132	=132	=132
16r	8g	16e-LL	pp
8CC 8C	.	16e-	.
.	16r	16e-JJ	.
16r	8.r	16e-LL	.
8DD- 8D-	.	16e-	.
.	.	16e-JJ	.
16r	8.r	16c 16e-LL	.
(16EE- 16E-LL	.	16c 16e-	.
16AAA- 16AA-JJ	.	16c 16e-JJ	.
!!LO:LB:g=original
=133	=133	=133	=133
8GGG') 8GG'	16r	16d- 16e-LL	.
.	8g	16d- 16e-	.
16r	.	16d- 16e-JJ	.
8.r	16r	16d- 16e-LL	.
.	8a-	16d- 16e-	.
.	.	16d- 16e-JJ	.
8.r	16r	16d- 16e-LL	.
.	16b-LL	16d- 16e-	.
.	16e-JJ	(16d-JJ)	.
=134	=134	=134	=134
16r	8e-L	16d-LL	pp
8AA- 8A-	.	16c	.
.	16e-Jk	16c'JJ	.
16r	16e-LL	16cLL	.
8FF# 8F#	16dn 16an	16c	.
.	16dJJ	16cJJ	.
16r	8dL	16cLL	.
8GG 8G	.	16Bn	.
.	16dJk	16BJJ	.
*clefG2	*	*	*
=135	=135	=135	=135
16r	16d-LL	16B-LL	.
8een	16d- 16g	16B-	.
.	16cJJ	16B-JJ	.
16r	8cL	16B-LL	.
8ffn	.	16An	.
.	16cJk	16AJJ	.
16r	16A- 16c-LL	8.r	.
8ddn	16A- 16B- 16f	.	.
.	16A- 16B-JJ	.	.
*clefF4	*	*	*
*	*v	*v	*
*	*clefF4	*
!!LO:LB:g=original
=136	=136	=136
*	*^	*
16r	8B-L	16A-LL	.
8EE- 8E-	.	16G	.
.	16B-Jk	16GJJ	.
16r	16B-LL	16GLL	.
8CC 8C	(16e-	16G	.
.	16AnJJ	16GJJ)	.
16r	8AL	16GLL	.
(16DD 16DLL	.	16F#	.
16CC) 16CJJ	16A 16dJk	16F#JJ	.
=137	=137	=137	=137
16BBBn 16BBn	16dLL	16Fn 16A-LL	.
*clefG2	*	*	*
8bn	16d	16F 16G	.
.	16GJJ	16FJJ	.
16r	16GLL	16FLL	.
8cc	(16G	16E-	.
.	16G 16cJJ)	16E-JJ	.
16r	16cLL	16E- 16G-LL	.
8an	(16c	16E- 16F	.
.	16FJJ	16E-JJ)	.
*clefF4	*	*	*
=138	=138	=138	=138
16r	16FLL	16E-LL	.
8BBB- 8BB-	16F	16D-	.
.	16B-JJ	16D- 16FJJ	.
16r	16B-LL	16D- 16E-LL	.
8GGG 8GG	16B-	16D- 16E-	.
.	16E-JJ	16D-JJ	<
48AAA-LLL	16E-LL	16CLL	.
48AA-	.	.	.
48AAA-	.	.	.
48AA-	(16E-	16C	.
48AAA-	.	.	.
48AA-	.	.	.
48AAA-	16cJJ)	16E-JJ	.
48AA-	.	.	.
48AAA-JJJ	.	.	.
*	*v	*v	*
*	*clefG2	*
!!LO:LB:g=original
=139	=139	=139
*	*^	*
48FF#LLL	16e-LL	16cLL	.
48FFF#	.	.	.
48FF#	.	.	.
48FFF#	(16e-	16c	.
48FF#	.	.	.
48FFF#	.	.	.
48FF#	16ccJJ)	16e-JJ	.
48FFF#	.	.	.
48FF#JJJ	.	.	.
48GGGLLL	16ccLL	16dLL	.
48GG	.	.	.
48GGG	.	.	.
48GG	16cc	16d	.
48GGG	.	.	.
48GG	.	.	.
48GGG	16bnJJ	16dJJ	.
48GG	.	.	.
48GGGJJJ	.	.	.
48GGLLL	8ccL	16c 16e-LL	.
48CC	.	.	.
48EE-	.	.	.
48GG	.	16c 16e-	.
48C	.	.	.
48E-	.	.	.
48C	16gJk	16c 16e-JJ	.
48E-	.	.	.
48GJJJ	.	.	.
=140	=140	=140	=140
48CLLL	4.g	16e-LL	.
48E-	.	.	.
48G	.	.	.
48BB-	.	16d	.
48D	.	.	.
48G	.	.	.
48C	.	16e-JJ	.
48E-	.	.	.
48GJJJ	.	.	.
48DLLL	.	16fLL	.
48F	.	.	.
48G	.	.	.
48C	.	16e-	.
48E-	.	.	.
48G	.	.	.
48D	.	16fJJ	.
48F	.	.	.
48GJJJ	.	.	.
48BB-LLL	(8ddL	16dLL	.
48D	.	.	.
48G	.	.	.
48AA-	.	16c	.
48C	.	.	.
48G	.	.	.
48BB-	16gJk	16d 16fJJ)	.
48D	.	.	.
48GJJJ	.	.	.
*	*v	*v	*
!!LO:LB:g=original
=141	=141	=141
*k[]	*k[]	*
*	*^	*
48BBLLL	4.g	16dLL	.
48D	.	.	.
48G	.	.	.
48C	.	16e	.
48E	.	.	.
48G	.	.	.
48BB	.	16dJJ	.
48D	.	.	.
48GJJJ	.	.	.
48CLLL	.	16eLL	.
48E	.	.	.
48G	.	.	.
48D	.	16f	.
48F	.	.	.
48G	.	.	.
48C	.	16eJJ	.
48E	.	.	.
48GJJJ	.	.	.
48DLLL	8.g	16fLL	.
48F	.	.	.
48G	.	.	.
48C#	.	16e	.
48E	.	.	.
48G	.	.	.
48D	.	16fJJ	.
48F	.	.	.
48GJJJ	.	.	.
=142	=142	=142	=142
48ELLL	(8.gL	16cLL	.
48G	.	.	.
48E	.	.	.
48G	.	16B	.
48E	.	.	.
48G	.	.	.
48E	.	16cJJ	.
48G	.	.	.
48EJJJ	.	.	.
48CnLLL	8.ee	16eLL	.
48G	.	.	.
48C	.	.	.
48G	.	16d	.
48C	.	.	.
48G	.	.	.
48C	.	16eJJ	.
48G	.	.	.
48CJJJ	.	.	.
48ELLL	8.ccJ)	16gLL	.
48G	.	.	.
48E	.	.	.
48G	.	16f	.
48D	.	.	.
48G	.	.	.
48C	.	16eJJ	.
48G	.	.	.
48CJJJ	.	.	.
!!LO:LB:g=original
=143	=143	=143	=143
48GGLLL	(8.ccL	16eLL	.
48F#	.	.	.
48G	.	.	.
48FF#	.	16d#	.
48F#	.	.	.
48G	.	.	.
48GG	.	16eJJ	.
48F#	.	.	.
48GJJJ	.	.	.
48GGLLL	8.b)	16dnLL	.
48F#	.	.	.
48G	.	.	.
48FF#	.	16d	.
48F#	.	.	.
48G	.	.	.
48GG	.	16dJJ	.
48F#	.	.	.
48GJJJ	.	.	.
48GGLLL	8.bJ	16d 16gLL	.
48F#	.	.	.
48G	.	.	.
48FF#	.	16d 16g	.
48F#	.	.	.
48G	.	.	.
48FFn	.	16d 16gJJ	.
48F#	.	.	.
48GJJJ	.	.	.
=144	=144	=144	=144
48EELLL	(8.ccL	16gLL	f
48C	.	.	.
48G	.	.	.
48DD#	.	16f#	.
48C	.	.	.
48G	.	.	.
48EE	.	16gJJ	.
48C	.	.	.
48GJJJ	.	.	.
48CLLL	8.ee	16eLL	.
48E	.	.	.
48G	.	.	.
48BB	.	16g	.
48Dn	.	.	.
48G	.	.	.
48C	.	16gJJ	.
48E	.	.	.
48GJJJ	.	.	.
48BB-LLL	8.ggJ)	16ddLL	.
48D	.	.	.
48G	.	.	.
48AA	.	16cc#	.
48E	.	.	.
48G	.	.	.
48BB-	.	16ddJJ	.
48D	.	.	.
48GJJJ	.	.	.
!!LO:LB:g=original
=145	=145	=145	=145
48AALLL	(8.ggL	16cc#LL	.
48E	.	.	.
48G	.	.	.
48A	.	16b	.
48G	.	.	.
48E	.	.	.
48AA	.	16cc#JJ	.
48E	.	.	.
48GJJJ	.	.	.
48AALLL	8.ffJ	16ddLL	.
48D	.	.	.
48F	.	.	.
48A	.	16cc#	.
48F	.	.	.
48D	.	.	.
48AA	.	16ddJJ	.
48D	.	.	.
48FJJJ	.	.	.
48AALLL	8ddL	16fnLL	.
48D	.	.	.
48F	.	.	.
48AA	.	16f	.
48D	.	.	.
48F	.	.	.
48AA-	16ccnJk)	16f#JJ	.
48D	.	.	.
48F#JJJ	.	.	.
=146	=146	=146	=146
48GGLLL	(8.bL	16gLL	p
48D	.	.	.
48G	.	.	.
48GG	.	16a	.
48D	.	.	.
48G	.	.	.
48GG	.	16gJJ	.
48D	.	.	.
48GJJJ	.	.	.
48GGLLL	8.ccJ	16f#LL	.
48D	.	.	.
48A	.	.	.
48GG	.	16g	.
48D	.	.	.
48A	.	.	.
48GG	.	16f#JJ	.
48D	.	.	.
48AJJJ	.	.	.
48GGLLL	8ddL	16fnLL	.
48G	.	.	.
48Bn	.	.	.
48AA	.	16f	.
48G	.	.	.
48c	.	.	.
48BBn	16gJk)	16fJJ	.
48G	.	.	.
48dJJJ	.	.	.
!!LO:LB:g=original
=147	=147	=147	=147
48BBLLL	[8.g	16d 16fLL	.
48G	.	.	.
48B	.	.	.
48C	.	16c 16e	.
48E	.	.	.
48G	.	.	.
48D	.	16B 16fJJ	.
48F	.	.	.
48GJJJ	.	.	.
48DLLL	8gL]	16fLL	.
48F	.	.	.
48G	.	.	.
48C	.	16c 16e	.
48E	.	.	.
48G	.	.	.
48BB	16eJk	16dJJ	.
48E	.	.	.
48G#JJJ	.	.	.
48BBLLL	16eLL	(16dLL	p
48E	.	.	.
48G#	.	.	.
48AA	16e)	16c	.
48E	.	.	.
48A	.	.	.
48GG#	16eJJ	16BJJ	.
48E	.	.	.
48G#JJJ	.	.	.
=148	=148	=148	=148
48AALLL	4.cc	16c 16eLL	.
48E	.	.	.
48A	.	.	.
48GG#	.	16e	<
48E	.	.	.
48G#	.	.	.
48AA	.	16eJJ	.
48E	.	.	.
48AJJJ	.	.	.
48AALLL	.	16eLL	.
48E	.	.	.
48A	.	.	.
48GG#	.	16e	.
48E	.	.	.
48G#	.	.	.
48AA	.	16eJJ	.
48E	.	.	.
48AJJJ	.	.	.
48AALLL	(8ccL	16eLL	.
48E	.	.	.
48A	.	.	.
48AA	.	16e	.
48E	.	.	.
48A	.	.	.
48GG#	16bJk)	16eJJ	.
48E	.	.	.
48BJJJ	.	.	.
!!LO:LB:g=original
=149	=149	=149	=149
48GG#LLL	4.b	16eLL	.
48E	.	.	.
48B	.	.	.
48AA	.	16e	.
48E	.	.	.
48B	.	.	.
48GG#	.	16eJJ	.
48E	.	.	.
48BJJJ	.	.	.
48GG#LLL	.	16eLL	.
48E	.	.	.
48B	.	.	.
48AA	.	16e	.
48E	.	.	.
48B	.	.	.
48GG#	.	16eJJ	.
48E	.	.	.
48BJJJ	.	.	.
48GG#LLL	(8bL	16eLL	.
48E	.	.	.
48B	.	.	.
48AA	.	16e	.
48E	.	.	.
48B	.	.	.
48GG#	16eeJk)	16e 16bJJ	.
48E	.	.	.
48BJJJ	.	.	.
=150	=150	=150	=150
48GG#LLL	8.eeL	16e 16bLL	.
48E	.	.	.
48B	.	.	.
48AA	.	16e 16b	.
48E	.	.	.
48B	.	.	.
48GG#	.	16e 16bJJ	.
48E	.	.	.
48BJJJ	.	.	.
48AALLL	8.eeJ	16e 16ccLL	.
48E	.	.	.
48c	.	.	.
48BB	.	16e 16cc	.
48E	.	.	.
48c	.	.	.
48AA	.	16e 16ccJJ	.
48E	.	.	.
48cJJJ	.	.	.
48FFLLL	(8ddL	16bLL	.
48F	.	.	.
48FF	.	.	.
48F	.	16g#	.
48FF	.	.	.
48F	.	.	.
48DD#	16ccJk)	16aJJ	.
48D#	.	.	.
48DD#JJJ	.	.	.
!!LO:LB:g=original
=151	=151	=151	=151
48EELLL	8.ccL	16e 16aLL	.
48D#	.	.	.
48E	.	.	.
48DD#	.	16e 16a	.
48D#	.	.	.
48E	.	.	.
48EE	.	16e 16aJJ	.
48D#	.	.	.
48EJJJ	.	.	.
48EELLL	8.b	16e 16g#LL	.
48D#	.	.	.
48E	.	.	.
48DD#	.	16e 16g#	.
48D#	.	.	.
48E	.	.	.
48EE	.	16e 16g#JJ	.
48D#	.	.	.
48EJJJ	.	.	.
48AAALLL	8.ccJ	16e 16aLL	p
48GG#	.	.	.
48AA	.	.	.
48GGG#	.	16e 16a	.
48GG#	.	.	.
48AA	.	.	.
48AAA	.	16e 16aJJ	.
48GG#	.	.	.
48AAJJJ	.	.	.
=152	=152	=152	=152
48GGGnLLL	4.dd	16gn 16bLL	.
48FF#	.	.	.
48GG	.	.	.
48FFF#	.	16g 16b	.
48FF#	.	.	.
48GG	.	.	.
48GGG	.	16g 16bJJ	.
48FF#	.	.	.
48GGJJJ	.	.	.
48GGGLLL	.	16g 16bLL	.
48FF#	.	.	.
48GG	.	.	.
48FFF#	.	16g 16b	.
48FF#	.	.	.
48GG	.	.	.
48GGG	.	16g 16bJJ	.
48FF#	.	.	.
48GGJJJ	.	.	.
48GGGLLL	8.dd	16fn 16bLL	.
48FF#	.	.	.
48GG	.	.	.
48FFF#	.	16f 16b	.
48FF#	.	.	.
48GG	.	.	.
48GGG	.	16f 16bJJ	.
48FF#	.	.	.
48GGJJJ	.	.	.
!!LO:LB:g=original
=153	=153	=153	=153
48GGGLLL	4.ee	16e 16b-LL	.
48CC	.	.	.
48GG	.	.	.
48FFF#	.	16e 16b-	.
48CC	.	.	.
48FF#	.	.	.
48GGG	.	16e 16b-JJ	.
48CC	.	.	.
48GGJJJ	.	.	.
48GGGLLL	.	16e 16b-LL	.
48CC	.	.	.
48GG	.	.	.
48FFF#	.	16e 16b-	.
48CC	.	.	.
48FF#	.	.	.
48GGG	.	16e 16b-JJ	.
48CC	.	.	.
48GGJJJ	.	.	.
48FFFnLLL	8.ff	16f 16aLL	.
48CC	.	.	.
48FFn	.	.	.
48FFF	.	16a 16cc	.
48CC	.	.	.
48FF	.	.	.
48FFF	.	16a 16ccJJ	.
48CC	.	.	.
48FFJJJ	.	.	.
=154	=154	=154	=154
48GGGLLL	8.ddL	16g 16ccLL	.
48CC	.	.	.
48DD	.	.	.
48GG	.	16g 16cc	.
48C	.	.	.
48D	.	.	.
48G	.	16g 16ccJJ	.
48D	.	.	.
48CJJJ	.	.	.
48GGLLL	8.ddJ	16g 16ccLL	.
48C	.	.	.
48D	.	.	.
48G	.	16g 16cc	.
48D	.	.	.
48C	.	.	.
48GG	.	16g 16ccJJ	.
48G	.	.	.
48cJJJ	.	.	.
48GGLLL	8ddL	16g 16bnLL	.
48G	.	.	.
48B	.	.	.
48AA	.	16g 16cc	.
48G	.	.	.
48c	.	.	.
48BB	16ggJk	16g 16ddJJ	.
48G	.	.	.
48dJJJ	.	.	.
!!LO:LB:g=original
=155	=155	=155	=155
48BBLLL	(8ggL	16ddLL	>
48G	.	.	.
48B	.	.	.
48GG	.	16b	.
48G	.	.	.
48d	.	.	.
48C	16eeJk)	16gJJ	.
48G	.	.	.
48cJJJ	.	.	.
48CLLL	8.ee	16eLL	p
48G	.	.	.
48c	.	.	.
48BB	.	16d#	.
48G	.	.	.
48B	.	.	.
48C	.	16eJJ	.
48G	.	.	.
48cJJJ	.	.	.
48GG#LLL	8eeL	16bLL	>
48E	.	.	.
48G#	.	.	.
48EE	.	16g#	.
48E	.	.	.
48B	.	.	.
48AA	16ccJk	16eJJ	.
48E	.	.	.
48AJJJ	.	.	.
=156	=156	=156	=156
48AALLL	8.cc	16eLL	p
48E	.	.	.
48A	.	.	.
48GG#	.	16e	.
48E	.	.	.
48G#	.	.	.
48AA	.	16eJJ	.
48E	.	.	.
48AJJJ	.	.	.
48EELLL	(8cccL	16ggnLL	>
48C	.	.	.
48E	.	.	.
48CC	.	16ee	.
48C	.	.	.
48Gn	.	.	.
48FF	16aaJk)	16ccJJ	.
48C	.	.	.
48FJJJ	.	.	.
48FFLLL	8.aa	16ccLL	p
48C	.	.	.
48F	.	.	.
48EE	.	16cc 16gg	.
48AA	.	.	.
48E	.	.	.
48DD	.	16dd 16ffJJ	.
48AA	.	.	.
48DJJJ	.	.	.
!!LO:LB:g=original
=157	=157	=157	=157
48CC#LLL	(8aaL	16eeLL	>
48AA	.	.	.
48C#	.	.	.
48AAA	.	16cc#	.
48AA	.	.	.
48E	.	.	.
48DD	16ffJk)	16aJJ	.
48AA	.	.	.
48DJJJ	.	.	.
48DDLLL	8.dd 8.ffL	16aLL	p
48AA	.	.	.
48D	.	.	.
48CC#	.	16a	.
48AA	.	.	.
48C#	.	.	.
48DD	.	16aJJ	.
48AA	.	.	.
48DJJJ	.	.	.
48CCnLLL	8.dd 8.ffJ	16a-LL	.
48FF	.	.	.
48Cn	.	.	.
48BBB	.	16a-	.
48FF	.	.	.
48BB	.	.	.
48CC	.	16a-JJ	.
48FF	.	.	.
48CJJJ	.	.	.
=158	=158	=158	=158
48BBBLLL	4.dd 4.ff	16gLL	.
48GG	.	.	.
48BB	.	.	.
48AAA#	.	16g	.
48GG	.	.	.
48AA#	.	.	.
48BBB	.	16gJJ	.
48GG	.	.	.
48BBJJJ	.	.	.
48BBBLLL	.	16gLL	.
48GG	.	.	.
48BB	.	.	.
48AAA#	.	16g	.
48GG	.	.	.
48AA#	.	.	.
48BBB	.	16gJJ	.
48GG	.	.	.
48BBJJJ	.	.	.
48GGGLLL	8.ff	16g 16bLL	.
48FF#	.	.	.
48GG	.	.	.
48AAAn	.	16g 16ccn	.
48GG	.	.	.
48AAn	.	.	.
48BBB	.	16g' 16dd'JJ	.
48GG	.	.	.
48BBJJJ	.	.	.
!!LO:LB:g=original
=159	=159	=159	=159
48CCLLL	8.eeL	16gLL	.
48GG	.	.	.
48C	.	.	.
48BBB	.	16g	.
48GG	.	.	.
48BB	.	.	.
48CC	.	16gJJ	.
48GG	.	.	.
48CJJJ	.	.	.
48CCLLL	8.ggJ	16g 16b-LL	.
48BB	.	.	.
48C	.	.	.
48DD	.	16g 16b-	.
48C	.	.	.
48D	.	.	.
48EE	.	16g 16b-JJ	.
48C	.	.	.
48EJJJ	.	.	.
48FFLLL	16ggLL	16aLL	.
48C	.	.	.
48F	.	.	.
48FF	16ff	16a	.
48C	.	.	.
48F	.	.	.
48FF#	16cc 16ddJJ	16aJJ	.
48C	.	.	.
48F#JJJ	.	.	.
=160	=160	=160	=160
48GGLLL	(8.ccL	16e 16gLL	.
48C	.	.	.
48G	.	.	.
48GG	.	16e 16g	.
48BB	.	.	.
48G	.	.	.
48GG	.	16e 16gJJ	.
48C	.	.	.
48GJJJ	.	.	.
48GGLLL	8ee	16f 16gLL	.
48BB	.	.	.
48G	.	.	.
48GG	.	16f 16g	.
48C	.	.	.
48G	.	.	.
48GG	16ddJk)	16f 16gJJ	.
48BB	.	.	.
48GJJJ	.	.	.
8G (8gL	8.r	48bLLL	.
.	.	48dd	>
.	.	48bb	.
.	.	48b	.
.	.	48dd	.
.	.	48gg	.
16E 16eJk)	.	48cc	.
.	.	48gg	.
.	.	48cccJJJ	.
*	*v	*v	*
!!LO:LB:g=original
=161	=161	=161
8.E 8.eL	48ccLLL	p
.	48gg	.
.	48ccc	.
.	48b	.
.	48gg	.
.	48bb	.
.	48cc	.
.	48gg	.
.	48cccJJJ	.
8E (8e	48gg#LLL	.
.	48bb	>
.	48ggg#	.
.	48gg#	.
.	48bb	.
.	48eee	.
16C 16cJk)	48aa	.
.	48eee	.
.	48aaaJJJ	.
8.C 8.c	48aaLLL	p
.	48eee	.
.	48aaa	.
.	48gg#	.
.	48eee	.
.	48ggg#	.
.	48aa	.
.	48eee	.
.	48aaaJJJ	.
=162	=162	=162
*	*^	*
8C (8cL	4.r	48eeLLL	.
.	.	48ggn	>
.	.	48eee	.
.	.	48ee	.
.	.	48gg	.
.	.	48ccc	.
16AA 16AJk)	.	48ff	.
.	.	48ccc	.
.	.	48fffJJJ	.
8.AA 8.A	.	48ffLLL	p
.	.	48ccc	.
.	.	48fff	.
.	.	48ee	.
.	.	48ccc	.
.	.	48eee	.
.	.	48ff	.
.	.	48ccc	.
.	.	48fffJJJ	.
48C#LLL	(8aaaL	16eeeLL	>
48A	.	.	.
48c#	.	.	.
48AA	.	16ccc#	.
48A	.	.	.
48e	.	.	.
48D	16fffJk)	16aaJJ	.
48A	.	.	.
48dJJJ	.	.	.
!!LO:LB:g=original
=163	=163	=163	=163
48DLLL	8.fffL	16aaLL	p
48A	.	.	.
48d	.	.	.
48C#	.	16aa	.
48A	.	.	.
48c#	.	.	.
48D	.	16aaJJ	.
48A	.	.	.
48dJJJ	.	.	.
48DLLL	8.fff	16aa 16dddLL	.
48A	.	.	.
48d	.	.	.
48C#	.	16aa 16ddd	.
48A	.	.	.
48c#	.	.	.
48D	.	16aa 16dddJJ	.
48A	.	.	.
48dJJJ	.	.	.
48CnLLL	8.fffJ	16aa- 16dddLL	.
48F	.	.	.
48cn	.	.	.
48BB	.	16aa- 16ddd	.
48F	.	.	.
48B	.	.	.
48C	.	16aa- 16dddJJ	.
48F	.	.	.
48cJJJ	.	.	.
=164	=164	=164	=164
48BBLLL	4.fff	16gg 16dddLL	.
48G	.	.	.
48B	.	.	.
48AA#	.	16gg 16ddd	.
48G	.	.	.
48A#	.	.	.
48BB	.	16gg 16dddJJ	.
48G	.	.	.
48BJJJ	.	.	.
48BBLLL	.	16gg 16dddLL	.
48G	.	.	.
48B	.	.	.
48AA#	.	16gg 16ddd	.
48G	.	.	.
48A#	.	.	.
48BB	.	16gg 16dddJJ	.
48G	.	.	.
48BJJJ	.	.	.
48BBLLL	8.fff	16gg 16dddLL	.
48G	.	.	.
48B	.	.	.
48AA#	.	16gg 16ddd	.
48G	.	.	.
48A#	.	.	.
48BB	.	16gg 16dddJJ	.
48G	.	.	.
48BJJJ	.	.	.
!!LO:LB:g=original
=165	=165	=165	=165
48AAnLLL	4.fff#	16cccn 16dddLL	.
48D	.	.	.
48An	.	.	.
48GG#	.	16ccc 16ddd	.
48D	.	.	.
48G#	.	.	.
48AA	.	16ccc 16dddJJ	.
48D	.	.	.
48AJJJ	.	.	.
48AALLL	.	16ccc 16dddLL	.
48D	.	.	.
48A	.	.	.
48GG#	.	16ccc 16ddd	.
48D	.	.	.
48G#	.	.	.
48AA	.	16ccc 16dddJJ	.
48D	.	.	.
48AJJJ	.	.	.
48AALLL	8.fff#	16ccc 16dddLL	.
48D	.	.	.
48A	.	.	.
48GG#	.	16ccc 16ddd	.
48D	.	.	.
48G#	.	.	.
48AA	.	16ccc 16dddJJ	.
48D	.	.	.
48AJJJ	.	.	.
=166	=166	=166	=166
48GGnLLL	8.gggL	16ccc 16eeeLL	.
48C	.	.	.
48Gn	.	.	.
48GG	.	16gg 16ccc 16eee	.
48BB	.	.	.
48G	.	.	.
48GG	.	16gg 16ccc 16eeeJJ	.
48C	.	.	.
48GJJJ	.	.	.
48GGLLL	8.fffnJ	16gg 16bbLL	.
48D	.	.	.
48G	.	.	.
48GG	.	16gg 16bb	.
48C#	.	.	.
48G	.	.	.
48GG	.	16gg 16bbJJ	.
48D	.	.	.
48GJJJ	.	.	.
48GGLLL	8gggL	16gg 16bbLL	.
48E	.	.	.
48G	.	.	.
48GG	.	16gg 16bb	.
48E	.	.	.
48G	.	.	.
48GG	16aaaJk	16gg 16bbJJ	.
48F	.	.	.
48GJJJ	.	.	.
!!LO:LB:g=original
=167	=167	=167	=167
48GGLLL	[8.aaa	16gg 16bbLL	f
48F	.	.	.
48G	.	.	.
48GG	.	16gg 16bb	.
48E	.	.	.
48G	.	.	.
48GG	.	16gg 16bbJJ	.
48F	.	.	.
48GJJJ	.	.	.
48GGLLL	4.r	16gg 16bb 16aaaLL]	.
48F	.	.	.
48G	.	.	.
48GG	.	16gg 16bb (16aaa	.
48F	.	.	.
48G	.	.	.
48GG	.	16gg 16ccc 16gggJJ)	.
48E	.	.	.
48GJJJ	.	.	.
48GGLLL	.	16gg 16ccc (16gggLL	.
48E	.	.	.
48G	.	.	.
48GG	.	16gg 16bb 16fff)	.
48D	.	.	.
48G	.	.	.
48GG	.	16gg 16ccc 16eeeJJ	.
48Cn	.	.	.
48GJJJ	.	.	.
=168	=168	=168	=168
48GGLLL	8ccc 8eeeL	16ggLL	.
48C	.	.	.
48G	.	.	.
48GG	.	16gg	.
48BB	.	.	.
48G	.	.	.
48GG	16eee 16gggJk	16ggJJ	.
48C	.	.	.
48GJJJ	.	.	.
48GGLLL	8fff#L	16gg 16ddd#LL	.
48AA	.	.	.
48G	.	.	.
48GG	.	16gg	.
48AA	.	.	.
48G	.	.	.
48GG	16fffnJk	16gg 16dddnJJ	.
48BB	.	.	.
48GJJJ	.	.	.
48GGLLL	16eeeLL	16gg 16bb-LL	.
48C#	.	.	.
48G	.	.	.
48GG	16fff	16gg 16bbn	.
48BB	.	.	.
48G	.	.	.
64GGL	16dddJJ	16gg 16bbJJ	.
64BB	.	.	.
64D	.	.	.
64FJJJJ	.	.	.
*	*v	*v	*
!!LO:LB:g=original
=169	=169	=169
64GLLLL	8.ddd	.
64B	.	.
64d	.	.
64fJJJJ	.	.
16r	.	.
16r	.	.
8.r	[4.ggg	.
8.r	.	.
=170	=170	=170
*	*^	*
8.r	4.r	4.ggg]	.
8.r	.	.	.
*clefG2	*	*	*
48eeLLL	[8.ggg	(8cccnL	pp
48ccn	.	.	.
48ee	.	.	.
48cc	.	.	.
48ee	.	.	.
48cc	.	.	.
48ee	.	16ggJk)	.
48cc	.	.	.
48eeJJJ	.	.	.
=171	=171	=171	=171
48ccLLL	4.ggg_	4.gg	.
48ee	.	.	.
48cc	.	.	.
48ee	.	.	.
48cc	.	.	.
48ee	.	.	.
48cc	.	.	.
48ee	.	.	.
48ccJJJ	.	.	.
48eeLLL	.	.	.
48cc#	.	.	.
48ee	.	.	.
48cc#	.	.	.
48ee	.	.	.
48cc#	.	.	.
48ff	.	.	.
48dd	.	.	.
48ffJJJ	.	.	.
48bLLL	8.ggg_	(8dddL	.
48ff	.	.	.
48b	.	.	.
48ff	.	.	.
48b	.	.	.
48ff	.	.	.
48b	.	16ggJk)	.
48ff	.	.	.
48bJJJ	.	.	.
!!LO:LB:g=original
=172	=172	=172	=172
48ffLLL	4.ggg_	4.gg	.
48b	.	.	.
48ff	.	.	.
48b	.	.	.
48ff	.	.	.
48b	.	.	.
48ff	.	.	.
48b	.	.	.
48ffJJJ	.	.	.
48ccnLLL	.	.	.
48ee	.	.	.
48cc	.	.	.
48ee	.	.	.
48cc	.	.	.
48ee	.	.	.
48cc#	.	.	.
48ee	.	.	.
48cc#JJJ	.	.	.
48ffLLL	8.ggg_	8.gg	.
48dd	.	.	.
48ff	.	.	.
48dd#	.	.	.
48ff#	.	.	.
48dd#	.	.	.
48ee	.	.	.
48dd#	.	.	.
48eeJJJ	.	.	.
=173	=173	=173	=173
48eLLL	4.ggg_	8.ggL	.
48ee	.	.	.
48e	.	.	.
48ee	.	.	.
48e	.	.	.
48ee	.	.	.
48e	.	.	.
48ee	.	.	.
48eJJJ	.	.	.
48ccnLLL	.	8.eee	.
48c	.	.	.
48cc	.	.	.
48c	.	.	.
48cc	.	.	.
48c	.	.	.
48cc	.	.	.
48c	.	.	.
48ccJJJ	.	.	.
48eLLL	8.ggg_	8.cccJ	.
48ee	.	.	.
48e	.	.	.
48ee	.	.	.
48e	.	.	.
48ee	.	.	.
48e	.	.	.
48ee	.	.	.
48eJJJ	.	.	.
!!LO:LB:g=original
=174	=174	=174	=174
48eeLLL	4.ggg]	(8.cccL	.
48g	.	.	.
48ee	.	.	.
48g	.	.	.
48ee	.	.	.
48g	.	.	.
48ee	.	.	.
48g	.	.	.
48eeJJJ	.	.	.
48gLLL	.	8.bbJ)	.
48dd	.	.	.
48g	.	.	.
48dd	.	.	.
48g	.	.	.
48dd	.	.	.
48g	.	.	.
48dd	.	.	.
48gJJJ	.	.	.
48ddLLL	8.bb	[8.gg	.
48f	.	.	.
48dd	.	.	.
48f	.	.	.
48dd	.	.	.
48f	.	.	.
48dd	.	.	.
48f	.	.	.
48ddJJJ	.	.	.
=175	=175	=175	=175
48eLLL	8.cccL	4.gg_	.
48g	.	.	.
48e	.	.	.
48g	.	.	.
48e	.	.	.
48g	.	.	.
48e	.	.	.
48g	.	.	.
48eJJJ	.	.	.
48cLLL	8.eee	.	.
48e	.	.	.
48c	.	.	.
48e	.	.	.
48c	.	.	.
48e	.	.	.
48c	.	.	.
48e	.	.	.
48cJJJ	.	.	.
48B-LLL	8.gggJ	8.gg_	.
48c	.	.	.
48B-	.	.	.
48c	.	.	.
48B-	.	.	.
48c	.	.	.
48B-	.	.	.
48c	.	.	.
48B-JJJ	.	.	.
!!LO:LB:g=original
=176	=176	=176	=176
48ALLL	8.gggL	4.gg]	.
48c	.	.	.
48A	.	.	.
48c	.	.	.
48A	.	.	.
48c	.	.	.
48A	.	.	.
48c	.	.	.
48AJJJ	.	.	.
48cLLL	8.fffJ	.	.
48A	.	.	.
48c	.	.	.
48Bn	.	.	.
48d	.	.	.
48B	.	.	.
48d	.	.	.
48B	.	.	.
48dJJJ	.	.	.
48BLLL	8dddL	[8.gg	.
48f	.	.	.
48B	.	.	.
48f	.	.	.
48B	.	.	.
48f	.	.	.
48e	16cccJk	.	.
48c	.	.	.
48eJJJ	.	.	.
=177	=177	=177	=177
48dLLL	(8.bbL	4.gg_	.
48f	.	.	.
48d	.	.	.
48g	.	.	.
48e	.	.	.
48g	.	.	.
48d	.	.	.
48f	.	.	.
48dJJJ	.	.	.
48cLLL	8.cccJ	.	.
48e	.	.	.
48c	.	.	.
48f	.	.	.
48d	.	.	.
48f	.	.	.
48c	.	.	.
48e	.	.	.
48cJJJ	.	.	.
48BLLL	8ddd)	8.gg]	.
48d	.	.	.
48B	.	.	.
48c	.	.	.
48A	.	.	.
48c	.	.	.
48B	16gg	.	.
48d	.	.	.
48BJJJ	.	.	.
*clefF4	*	*	*
!!LO:LB:g=original
=178	=178	=178	=178
48CLLL	[4.gg	8.r	.
48e	.	.	.
48c	.	.	.
48e	.	.	.
48c	.	.	.
48e	.	.	.
48c	.	.	.
48e	.	.	.
48cJJJ	.	.	.
48CLLL	.	8.r	.
48e	.	.	.
48c	.	.	.
48e	.	.	.
48c	.	.	.
48e	.	.	.
48c	.	.	.
48e	.	.	.
48cJJJ	.	.	.
48CLLL	8.gg_	(8ddL	.
48f	.	.	.
48c	.	.	.
48f	.	.	.
48c	.	.	.
48f	.	.	.
48c	.	16gJk)	.
48f	.	.	.
48cJJJ	.	.	.
=179	=179	=179	=179
48CLLL	8.ggL_	[8.gL	.
48e	.	.	.
48c	.	.	.
48e	.	.	.
48c	.	.	.
48e	.	.	.
48c	.	.	.
48e	.	.	.
48cJJJ	.	.	.
48CLLL	8ggJ]	8gJ]	.
48E	.	.	.
48C	.	.	.
48E	.	.	.
48C	.	.	.
48E	.	.	.
48C	16ccc	[16gg	.
48E	.	.	.
48CJJJ	.	.	.
48CCLLL	16ccc#LL	8.gg]	.
48F	.	.	.
48C	.	.	.
48F	16ddd	.	>
48C	.	.	.
48F	.	.	.
48C	16ggJJ	.	.
48F	.	.	.
48CJJJ	.	.	.
!!LO:LB:g=original
=180	=180	=180	=180
48CCLLL	[4.gg	8.r	.
48E	.	.	.
48C	.	.	.
48E	.	.	.
48C	.	.	.
48E	.	.	.
48C	.	.	.
48E	.	.	.
48CJJJ	.	.	.
48CCLLL	.	16r	.
48E	.	.	.
48C	.	.	.
48E	.	16r	.
48C	.	.	.
48E	.	.	.
48C	.	(16cc	.
48E	.	.	.
48CJJJ	.	.	.
48CCLLL	8.gg]	16cc#LL	.
48F	.	.	.
48C	.	.	.
48F	.	16dd)	>
48C	.	.	.
48F	.	.	.
48C	.	16gJJ	.
48F	.	.	.
48CJJJ	.	.	.
*clefG2	*	*	*
*	*v	*v	*
=181	=181	=181
8.r	48ggLLL	pp
.	48aa	.
.	48gg	.
.	48ff#	.
.	48gg	.
.	48aa	.
.	48bb	.
.	48ccc	.
.	48aaJJJ	.
48ggLLL	48bbLLL	.
48aa	48ccc	.
48gg	48bb	.
48ff#	48aa	.
48gg	48bb	.
48aa	48ccc	.
48bb	48ddd	.
48ccc	48eee	.
48aaJJJ	48cccJJJ	.
48bbLLL	48dddLLL	.
48ccc	48eee	.
48bb	48ddd	.
48aa#	48ccc#	.
48bb	48ddd	.
48ccc	48eee	.
48ddd	48fffn	.
48eee	48ggg	.
48ccc#JJJ	48eeeJJJ	.
!!LO:LB:g=original
=182	=182	=182
48dddLLL	48fffLLL	.
48eee	48ggg	.
48ddd	48fff	.
48cccn	48eee	.
48ddd	48fff	.
48ccc	48eee	.
48bb	48ddd	.
48ccc	48eee	.
48bbJJJ	48dddJJJ	.
48aanLLL	48cccnLLL	.
48bb	48ddd	.
48aa	48ccc	.
48gg	48bb	.
48aa	48ccc	.
48gg	48bb	.
48aa	48ccc	.
48bb	48ddd	.
48aaJJJ	48cccJJJ	.
48bbLLL	48dddLLL	.
48ccc	48eee	.
48bb	48ddd	.
48ccc	48eee	.
48ddd	48fff	.
48eee	48ggg	.
48fff	48aaa	.
48eee	48ggg	.
48dddJJJ	48bbbJJJ	.
=183	=183	=183
48eeeLLL	48ccccLLL	.
48ddd	48bbb	.
48ccc	48aaa	.
48bb	48ggg	.
48aa	48fff	.
48gg	48eee	.
48ff	48ddd	.
48ee	48ccc	.
48ddJJJ	48bbJJJ	.
48eeLLL	48cccLLL	.
48dd	48bb	.
48cc	48aa	.
48b	48gg	.
48a	48ff	.
48g	48ee	.
48f	48dd	.
48e	48cc	.
48dJJJ	48bJJJ	.
*clefF4	*	*
48eLLL	48ccLLL	.
48d	48b	.
48c	48a	.
48B	48g	.
48A	48f	.
48G	48e	.
48F	48d	.
48E	48c	.
48DJJJ	48BJJJ	.
!!LO:LB:g=original
=184	=184	=184
8.r	(8cL	f
.	16GJk)	.
(8CCL	8.G	f
16GGGJk)	.	.
[8.GGG	(8ffL	.
.	16bJk)	.
=185	=185	=185
8.GGG_	(8fffL	.
.	16bbJk)	.
16GGGLL]	8dd 8ff (8dddL	p
(16GGG 16GG	.	.
16CC) 16CJJ	16cc 16ee 16cccJk)	.
16r	8cc 8ee 8ccc	.
16GG (16GLL	.	.
16C 16cJJ)	16r	.
=186	=186	=186
16r	8cc 8ee 8ccc	pp
(16GGG 16GGLL	.	.
*	*clefF4	*
16CC) 16CJJ	16r	.
8CC 8C	8E 8G 8c	.
16r	16r	.
8.r	8.r	.
==	==	==
*-	*-	*-
!!!verovio: beamFrenchStyle
!!!LOR: Durand 1915, plates 9327/9328, Paul Dukas, ed.
!!!PED: Dukas, Paul
!!!URL-vhv: https://verovio.humdrum.org/?file=beethoven/sonatas/sonata32-2.krn
!!!URL-pdf: https://github.com/craigsapp/beethoven-piano-sonatas/blob/master/reference-edition/sonata32-2.pdf
!!!ENC: Craig Stuart Sapp
!!!END: 2008/11/04
!!!EED: Craug Stuart Sapp
!!!EEV: 2014/07/13 (added ottavas)
!!!RDF**kern: > = above
!!!RDF**kern: < = below
